assets/sample/sample_chart.ti2
CTI2   

DESCRIPTOR "Argyll Calibration Target chart information 2"
ORIGINATOR "Argyll printtarg"
CREATED "Tue Mar 24 17:28:40 2026"
TARGET_INSTRUMENT "GretagMacbeth i1 Pro"
COMP_GREY_STEPS "64"
ACCURATE_EXPECTED_VALUES "true"
APPROX_WHITE_POINT "85.152521 88.610229 73.606445"
COLOR_REP "iRGB"
PAPER_SIZE "215.9x279.4"
RANDOM_START "248"
STEPS_IN_PASS "22"
PASSES_IN_STRIPS2 "26"
STRIP_INDEX_PATTERN "A-Z, A-Z"
PATCH_INDEX_PATTERN "0-9,@-9,@-9;1-999"
INDEX_ORDER "STRIP_THEN_PATCH"

NUMBER_OF_FIELDS 8
BEGIN_DATA_FORMAT
SAMPLE_ID SAMPLE_LOC RGB_R RGB_G RGB_B XYZ_X XYZ_Y XYZ_Z 
END_DATA_FORMAT

NUMBER_OF_SETS 572
BEGIN_DATA
1 "R22" 100.0000 100.0000 100.0000 85.15252 88.61023 73.60644 
2 "K16" 100.0000 100.0000 100.0000 85.15252 88.61023 73.60644 
3 "R20" 100.0000 100.0000 100.0000 85.15252 88.61023 73.60644 
4 "F5" 100.0000 100.0000 100.0000 85.15252 88.61023 73.60644 
5 "F6" 0.00000 0.00000 0.00000 2.082380 2.087211 2.015836 
6 "Y5" 0.00000 0.00000 0.00000 2.082380 2.087211 2.015836 
7 "I4" 0.00000 0.00000 0.00000 2.082380 2.087211 2.015836 
8 "E16" 0.00000 0.00000 0.00000 2.082380 2.087211 2.015836 
9 "Y15" 98.82353 98.82353 98.82353 83.88596 87.23915 72.82577 
10 "C1" 97.64706 97.64706 97.64706 82.62718 85.87261 72.03294 
11 "O11" 96.47059 96.47059 96.47059 81.29256 84.43016 71.20738 
12 "M9" 95.29412 95.29412 95.29412 79.91594 82.94803 70.38967 
13 "O9" 94.11765 94.11765 94.11765 78.53982 81.44666 69.59690 
14 "K22" 92.94118 92.94118 92.94118 77.09160 79.88374 68.72849 
15 "E15" 91.76471 91.76471 91.76471 75.60357 78.26948 67.86080 
16 "P13" 90.58824 90.58824 90.58824 74.06462 76.63051 66.92319 
17 "I8" 89.41176 89.41176 89.41176 72.55761 75.01398 65.95672 
18 "W16" 88.23529 88.23529 88.23529 71.04790 73.40312 64.90635 
19 "F17" 87.05882 87.05882 87.05882 69.49439 71.76724 63.77960 
20 "P2" 85.49020 85.49020 85.49020 67.75441 69.91087 62.32046 
21 "S5" 84.31373 84.31373 84.31373 65.94276 68.01281 60.75419 
22 "O18" 83.13725 83.13725 83.13725 64.20862 66.18516 59.23440 
23 "G20" 81.56863 81.56863 81.56863 62.51674 64.41776 57.77766 
24 "F12" 80.39216 80.39216 80.39216 60.85064 62.68843 56.35531 
25 "U12" 79.21569 79.21569 79.21569 59.19910 60.96665 54.94307 
26 "Y12" 77.64706 77.64706 77.64706 57.47399 59.18914 53.46023 
27 "S17" 76.47059 76.47059 76.47059 55.53617 57.17574 51.78999 
28 "L22" 74.90196 74.90196 74.90196 53.46375 55.02103 49.95743 
29 "O4" 73.72549 73.72549 73.72549 51.43485 52.90758 48.12944 
30 "L2" 72.15686 72.15686 72.15686 49.54900 50.93258 46.43519 
31 "T2" 70.98039 70.98039 70.98039 47.69603 49.00495 44.70475 
32 "D2" 69.41176 69.41176 69.41176 45.97206 47.23053 43.11724 
33 "N1" 67.84314 67.84314 67.84314 44.23674 45.46383 41.50786 
34 "R8" 66.66667 66.66667 66.66667 42.39431 43.57044 39.78546 
35 "N6" 65.09804 65.09804 65.09804 40.53819 41.65900 38.07120 
36 "J14" 63.52941 63.52941 63.52941 38.85797 39.92566 36.47300 
37 "A22" 61.96078 61.96078 61.96078 37.26011 38.26713 34.97485 
38 "J16" 60.78431 60.78431 60.78431 35.59193 36.53499 33.40703 
39 "W13" 59.21569 59.21569 59.21569 33.78894 34.67483 31.69563 
40 "M16" 57.64706 57.64706 57.64706 31.96945 32.80720 29.97469 
41 "C12" 56.07843 56.07843 56.07843 30.15500 30.96436 28.28789 
42 "H4" 54.50980 54.50980 54.50980 28.33922 29.11202 26.59928 
43 "J18" 52.94118 52.94118 52.94118 26.71893 27.45055 25.11032 
44 "H6" 51.37255 51.37255 51.37255 25.17333 25.85383 23.68787 
45 "E3" 49.41176 49.41176 49.41176 23.82898 24.44988 22.47201 
46 "N12" 47.84314 47.84314 47.84314 22.42175 22.99079 21.17698 
47 "J6" 46.27451 46.27451 46.27451 20.75821 21.28110 19.55081 
48 "J4" 44.70588 44.70588 44.70588 19.23714 19.70699 18.05234 
49 "W11" 42.74510 42.74510 42.74510 17.96584 18.39180 16.81801 
50 "J8" 41.17647 41.17647 41.17647 16.71485 17.12119 15.65589 
51 "A20" 39.60784 39.60784 39.60784 15.33032 15.70885 14.38083 
52 "W21" 37.64706 37.64706 37.64706 14.08226 14.44030 13.27383 
53 "Z6" 36.07843 36.07843 36.07843 12.78912 13.14544 12.12651 
54 "C8" 34.11765 34.11765 34.11765 11.37029 11.72125 10.85962 
55 "A18" 32.15686 32.15686 32.15686 10.17577 10.53418 9.791759 
56 "V12" 30.58824 30.58824 30.58824 9.112941 9.475081 8.865518 
57 "K7" 28.62745 28.62745 28.62745 8.258857 8.621050 8.105653 
58 "X20" 26.66667 26.66667 26.66667 7.432814 7.788249 7.389048 
59 "N21" 24.70588 24.70588 24.70588 6.687744 7.022435 6.727747 
60 "X7" 22.74510 22.74510 22.74510 6.132949 6.416193 6.166470 
61 "Y14" 20.78431 20.78431 20.78431 5.575978 5.810954 5.567314 
62 "L7" 18.82353 18.82353 18.82353 4.950725 5.146850 4.898276 
63 "G3" 16.86275 16.86275 16.86275 4.454181 4.624537 4.367687 
64 "D12" 14.90196 14.90196 14.90196 4.066364 4.216757 3.938933 
65 "G5" 12.94118 12.94118 12.94118 3.774938 3.905770 3.596420 
66 "A14" 10.58824 10.58824 10.58824 3.446988 3.549661 3.260395 
67 "O17" 8.627451 8.627451 8.627451 3.079143 3.142465 2.889137 
68 "H12" 6.666667 6.666667 6.666667 2.727867 2.751528 2.549173 
69 "Y11" 4.313725 4.313725 4.313725 2.419221 2.416490 2.284489 
70 "F11" 2.352941 2.352941 2.352941 2.187837 2.174473 2.087884 
71 "X18" 100.0000 100.0000 0.00000 69.45930 74.10794 3.902633 
72 "X3" 0.00000 100.0000 0.00000 2.609568 7.378819 2.983992 
73 "Y4" 0.00000 100.0000 100.0000 9.975159 13.50108 50.99292 
74 "H19" 100.0000 0.00000 100.0000 43.25036 22.53747 20.35383 
75 "J5" 0.00000 0.00000 100.0000 3.639003 1.743676 15.45136 
76 "X19" 100.0000 0.00000 0.00000 30.94062 15.46692 4.879416 
77 "C13" 0.00000 100.0000 86.66667 7.052426 12.90438 35.14508 
78 "V19" 31.37255 54.90196 0.00000 6.804908 10.94530 2.286002 
79 "W10" 100.0000 49.01961 0.00000 47.94797 34.96613 2.568638 
80 "B3" 60.00000 100.0000 100.0000 47.65412 57.17963 69.81842 
81 "P8" 56.47059 0.00000 100.0000 13.73123 7.136883 19.99035 
82 "K10" 100.0000 100.0000 71.76471 77.93552 84.86552 39.47364 
83 "Z20" 100.0000 41.17647 100.0000 64.14649 49.22103 51.77086 
84 "I7" 56.86275 0.00000 0.00000 12.80153 7.102239 3.988084 
85 "I15" 0.00000 36.47059 0.00000 2.075944 3.676411 2.411410 
86 "N17" 0.00000 100.0000 65.88235 3.677030 10.75313 14.01600 
87 "X8" 0.00000 36.86275 100.0000 6.208731 4.732056 31.87725 
88 "X13" 0.00000 0.00000 34.90196 2.025762 1.621522 5.436086 
89 "T18" 100.0000 50.19608 48.62745 57.35715 43.86393 33.92941 
90 "Q17" 35.29412 100.0000 65.49020 17.34401 32.54563 15.78361 
91 "O8" 60.39216 100.0000 0.00000 21.99561 32.94902 3.413869 
92 "Z14" 0.00000 45.88235 35.68627 2.256429 4.606669 6.511167 
93 "V13" 27.45098 100.0000 0.00000 5.138701 13.07293 2.923745 
94 "I13" 39.60784 66.66667 100.0000 25.20119 27.13201 54.27545 
95 "T8" 100.0000 100.0000 52.15686 74.27415 82.35081 20.76476 
96 "B13" 56.07843 40.00000 0.00000 18.92563 16.49187 2.107639 
97 "V5" 100.0000 73.72549 37.25490 59.39594 54.22113 10.23782 
98 "T16" 31.37255 0.00000 100.0000 5.604016 2.685213 18.14711 
99 "R5" 0.00000 53.72549 58.03922 4.404444 6.344757 20.91955 
100 "X11" 20.39216 0.00000 36.07843 2.947016 2.053892 5.680198 
101 "V9" 0.00000 100.0000 32.94118 2.283148 8.477167 3.982335 
102 "W12" 100.0000 23.92157 0.00000 37.64064 21.54882 2.103138 
103 "C9" 42.35294 100.0000 0.00000 12.97348 23.48243 3.378475 
104 "N13" 100.0000 0.00000 54.50980 39.92907 20.45181 14.80487 
105 "M14" 15.29412 0.00000 0.00000 3.431695 2.897877 2.401371 
106 "H13" 36.86275 100.0000 100.0000 29.22145 40.13852 66.57980 
107 "J22" 23.13725 23.52941 0.00000 4.454092 4.965596 1.858145 
108 "T10" 65.49020 100.0000 69.41176 40.06283 53.87967 26.74214 
109 "W5" 0.00000 0.00000 58.43137 2.578173 1.563291 9.591980 
110 "D20" 100.0000 82.74510 100.0000 79.74475 77.70990 68.87816 
111 "H16" 100.0000 78.43137 65.49020 68.90209 64.54414 39.37695 
112 "X10" 69.01961 100.0000 94.11765 53.77500 63.37368 59.48968 
113 "S13" 85.49020 31.76471 100.0000 45.47224 33.83555 45.84723 
114 "K21" 32.54902 0.00000 27.84314 6.733415 4.269356 5.166504 
115 "V11" 0.00000 75.29412 100.0000 8.714668 9.947847 45.16082 
116 "Y2" 100.0000 72.94118 0.00000 56.66350 49.58080 2.996513 
117 "A6" 0.00000 20.00000 44.31373 2.482678 2.111296 10.16006 
118 "J17" 84.31373 0.00000 0.00000 24.30007 12.48962 5.823633 
119 "W22" 100.0000 38.82353 15.68627 45.83287 31.35803 4.635022 
120 "A3" 20.39216 100.0000 80.39216 10.29550 22.31990 27.07726 
121 "W14" 0.00000 64.31373 0.00000 2.210061 5.348382 2.558142 
122 "Q12" 22.35294 38.82353 36.47059 7.006031 9.481791 9.550699 
123 "A12" 42.74510 14.11765 0.00000 9.272700 6.346307 2.435244 
124 "Q19" 50.19608 100.0000 28.62745 18.03390 32.34170 6.443515 
125 "Y21" 67.45098 61.96078 45.88235 34.93647 36.00727 17.14356 
126 "X16" 55.29412 54.50980 0.00000 20.20684 21.32079 2.381184 
127 "Y13" 44.31373 13.33333 100.0000 12.53107 7.967733 29.04127 
128 "F8" 100.0000 100.0000 29.01961 70.92843 78.74584 7.985917 
129 "C18" 100.0000 21.17647 60.78431 48.66560 29.12165 28.10501 
130 "D6" 0.00000 24.31373 12.94118 1.780433 2.697159 2.742102 
131 "N9" 0.00000 16.47059 0.00000 1.909274 2.489225 2.129283 
132 "I11" 76.07843 75.29412 100.0000 53.30507 54.23374 64.20093 
133 "H5" 100.0000 15.29412 28.23529 40.01865 21.93412 15.55485 
134 "C20" 25.09804 83.52941 100.0000 17.98342 23.97007 59.93846 
135 "S10" 0.00000 51.37255 25.49020 1.743805 4.495603 3.147727 
136 "Z22" 76.86275 0.00000 65.88235 28.32427 15.06611 15.52285 
137 "K11" 52.94118 22.35294 33.33333 17.70384 12.45658 13.12654 
138 "M3" 25.49020 30.58824 100.0000 13.09797 11.06079 39.99587 
139 "L8" 100.0000 0.00000 17.64706 33.51830 16.76940 7.432154 
140 "S15" 66.66667 30.58824 43.92157 28.56632 20.53960 22.03140 
141 "A4" 49.01961 55.29412 49.01961 23.47947 26.05057 19.80574 
142 "C17" 78.82353 0.00000 100.0000 24.31688 12.72507 19.29080 
143 "G2" 85.88235 100.0000 90.98039 69.19142 76.37347 60.50453 
144 "K12" 0.00000 70.98039 81.17647 7.401289 9.400280 37.69608 
145 "N4" 29.01961 57.25490 61.56863 13.68113 17.69284 26.42561 
146 "J19" 30.58824 100.0000 31.37255 12.44743 26.41245 6.908754 
147 "P4" 27.05882 36.86275 0.00000 5.527454 7.478167 1.952708 
148 "T19" 26.27451 0.00000 60.78431 4.006308 2.328680 11.90066 
149 "J9" 84.70588 100.0000 48.62745 50.48091 63.34006 15.97951 
150 "Y8" 65.49020 74.90196 0.00000 28.68778 33.50788 2.956463 
151 "U1" 100.0000 54.50980 43.52941 56.29982 44.98634 23.78744 
152 "S20" 0.00000 34.90196 66.27451 4.437928 3.923944 21.45777 
153 "E5" 48.62745 38.43137 65.09804 21.17519 20.13628 30.13460 
154 "J2" 54.11765 39.21569 21.56863 18.91797 16.77999 5.281017 
155 "D3" 62.35294 25.88235 0.00000 18.65506 12.83984 1.962673 
156 "D22" 100.0000 63.92157 100.0000 72.64277 64.49102 61.34948 
157 "G12" 0.00000 33.72549 45.49020 3.225006 3.642384 14.07021 
158 "V21" 38.82353 73.72549 50.58824 17.60815 27.12686 12.95669 
159 "R3" 37.64706 34.90196 0.00000 10.22002 10.46803 1.962320 
160 "Z11" 32.94118 0.00000 0.00000 5.570922 3.662112 2.862399 
161 "Q8" 46.27451 44.70588 100.0000 25.55845 24.45362 49.76779 
162 "M12" 65.88235 21.96078 100.0000 24.55028 17.40010 37.53518 
163 "X21" 68.23529 100.0000 50.98039 36.12497 50.74645 16.53398 
164 "Y3" 54.90196 0.00000 50.58824 16.01729 8.886687 10.52148 
165 "P21" 0.00000 54.90196 49.80392 3.164839 5.911442 12.89014 
166 "I3" 44.31373 86.66667 100.0000 31.92574 38.67729 64.71064 
167 "B21" 51.37255 100.0000 76.07843 31.12182 45.68369 27.99118 
168 "Z19" 21.56863 70.19608 0.00000 3.671925 8.744880 2.428955 
169 "N20" 0.00000 23.13725 100.0000 4.647954 2.594519 22.97109 
170 "G9" 48.23529 59.60784 34.11765 18.45218 23.62728 7.911990 
171 "X12" 34.90196 50.98039 39.21569 13.12707 17.13210 10.76697 
172 "R15" 18.03922 100.0000 65.49020 7.394599 19.43938 14.56230 
173 "X4" 42.74510 0.00000 72.94118 8.815678 4.762214 15.24887 
174 "P14" 35.29412 65.09804 84.70588 21.66784 24.73499 47.87449 
175 "U16" 50.98039 87.45098 60.78431 27.35617 39.52985 19.85555 
176 "Q5" 52.15686 100.0000 88.62745 36.71288 49.46679 46.23238 
177 "B8" 78.03922 16.07843 100.0000 30.54245 19.00169 32.23503 
178 "K1" 31.37255 21.56863 0.00000 6.731828 5.948424 1.943396 
179 "C5" 12.54902 34.50980 23.52941 3.237070 5.417925 4.233194 
180 "D18" 100.0000 88.23529 66.66667 72.61538 72.85053 36.52168 
181 "A1" 78.03922 60.78431 0.00000 37.51434 34.13309 2.702549 
182 "H18" 10.98039 34.90196 30.19608 3.304920 5.286436 5.983947 
183 "B2" 24.31373 36.47059 47.05882 8.555677 9.669438 16.63436 
184 "R11" 0.00000 36.47059 23.52941 1.697132 3.352618 3.275733 
185 "G18" 100.0000 52.94118 32.94118 52.17364 40.37861 10.98590 
186 "U14" 23.13725 49.80392 100.0000 12.85109 12.83325 44.13622 
187 "L21" 0.00000 53.72549 100.0000 7.393418 6.999602 38.57182 
188 "L18" 100.0000 38.03922 28.23529 49.62808 34.31412 15.50071 
189 "L4" 0.00000 76.47059 42.35294 2.344635 7.552406 6.428857 
190 "T22" 100.0000 35.68627 35.29412 52.18239 35.57229 29.60121 
191 "W15" 46.27451 40.78431 27.45098 16.36060 16.29679 6.948513 
192 "H11" 70.58824 90.98039 100.0000 55.25746 59.85168 69.28095 
193 "M4" 45.49020 70.98039 69.41176 26.03200 32.19009 33.63860 
194 "S14" 62.35294 78.43137 40.00000 28.44631 37.67215 10.43080 
195 "Y20" 35.68627 68.62745 54.90196 16.27163 24.34212 16.66513 
196 "P6" 89.41176 68.62745 78.03922 62.71029 57.38851 53.37441 
197 "W1" 68.62745 50.19608 48.62745 34.96904 30.74264 24.42679 
198 "X6" 100.0000 100.0000 86.27451 82.00824 87.20065 57.54817 
199 "Z18" 71.37255 50.58824 61.56863 40.15656 34.90545 35.90055 
200 "U19" 49.41176 0.00000 23.92157 11.72772 6.569842 5.848973 
201 "Z12" 100.0000 84.70588 23.13725 63.62998 63.02071 5.793804 
202 "R14" 40.00000 21.96078 28.62745 12.05825 9.520528 9.117378 
203 "F19" 0.00000 38.03922 39.60784 2.837345 4.073805 10.41195 
204 "Q11" 67.05882 25.09804 14.90196 22.75909 15.48879 6.052903 
205 "X22" 100.0000 43.13725 63.13725 56.07566 39.33007 38.77632 
206 "K4" 10.19608 70.19608 50.98039 4.505709 10.97783 10.85917 
207 "O13" 73.33333 63.52941 39.60784 37.75108 37.95580 11.80798 
208 "H3" 19.60784 100.0000 100.0000 16.10710 25.15835 61.15358 
209 "N7" 0.00000 49.80392 67.84314 5.506925 6.190187 27.18135 
210 "U18" 25.09804 69.41176 45.49020 9.227873 17.81370 9.339402 
211 "O10" 16.47059 0.00000 19.21569 3.310480 2.587460 3.214938 
212 "B4" 100.0000 67.45098 59.21569 65.10608 57.00016 39.07444 
213 "V10" 71.37255 29.01961 69.01961 34.93771 25.81875 31.14422 
214 "E13" 71.37255 87.05882 57.25490 40.75901 50.66152 22.53795 
215 "D21" 69.80392 9.803922 33.33333 23.52492 13.28729 12.32230 
216 "Q10" 85.49020 81.96078 73.72549 62.20425 64.09355 47.68755 
217 "V17" 65.49020 78.82353 60.00000 38.51508 45.87900 26.57070 
218 "Q20" 36.86275 76.07843 0.00000 8.814322 16.00752 2.690960 
219 "P19" 85.09804 15.29412 0.00000 27.40156 15.33910 3.019268 
220 "N11" 100.0000 18.82353 16.47059 40.42534 22.88909 12.49222 
221 "L1" 45.88235 26.27451 0.00000 12.18339 9.589520 2.063873 
222 "T13" 36.07843 0.00000 46.27451 7.420267 4.543175 8.858473 
223 "Y7" 25.09804 25.88235 37.64706 7.578869 7.689752 11.83644 
224 "R10" 65.49020 57.25490 100.0000 37.73055 36.71557 55.95005 
225 "T6" 56.86275 67.45098 28.62745 23.07458 29.30367 6.136607 
226 "D16" 0.00000 0.00000 18.43137 1.845139 1.683191 3.135941 
227 "D15" 13.33333 52.15686 25.49020 3.691553 8.054414 3.941063 
228 "L16" 49.01961 72.54902 0.00000 15.59697 22.13746 2.711828 
229 "J1" 100.0000 77.64706 78.03922 72.58779 67.21276 55.15041 
230 "M15" 20.00000 100.0000 90.19608 12.77429 23.65255 43.32209 
231 "K3" 85.09804 49.01961 100.0000 50.26231 43.45476 53.98587 
232 "L20" 61.56863 72.15686 83.92157 41.46935 43.97016 54.20420 
233 "J13" 0.00000 63.52941 45.09804 2.511995 6.575771 8.281966 
234 "Y17" 26.66667 44.31373 66.66667 12.23691 13.18104 30.56402 
235 "W17" 30.19608 18.43137 56.47059 8.200387 6.700583 17.76745 
236 "B11" 58.43137 28.62745 80.39216 23.65149 19.12390 35.22628 
237 "I17" 85.49020 49.01961 21.56863 38.81572 30.84274 5.122297 
238 "X1" 0.00000 100.0000 77.64706 5.138532 11.46970 22.66977 
239 "F10" 80.00000 100.0000 0.00000 39.09500 48.88315 3.625545 
240 "Z15" 0.00000 72.94118 65.88235 4.666189 8.973636 22.77967 
241 "T15" 43.13725 52.94118 69.80392 22.43099 23.63490 35.93212 
242 "Z5" 13.72549 100.0000 22.35294 4.667198 13.87498 4.019055 
243 "M8" 55.68627 48.62745 26.66667 21.79292 21.76305 5.838546 
244 "Z10" 100.0000 86.66667 50.98039 69.46149 70.12653 19.13823 
245 "H15" 12.15686 86.66667 62.35294 5.638660 14.42851 15.08224 
246 "J20" 30.98039 37.25490 30.58824 9.678027 11.33330 8.084621 
247 "C16" 43.92157 47.45098 31.37255 16.15241 18.14844 7.727609 
248 "S4" 63.13725 11.76471 0.00000 16.66967 9.848853 3.017473 
249 "I5" 59.21569 85.88235 78.03922 39.26216 47.82446 42.30504 
250 "E9" 71.37255 71.76471 37.64706 36.76318 41.18462 9.965055 
251 "U21" 0.00000 18.43137 28.23529 1.911330 2.018849 5.338542 
252 "K18" 86.27451 100.0000 65.88235 57.24331 68.71952 30.62878 
253 "U20" 100.0000 89.01961 82.74510 78.51206 78.71040 59.23433 
254 "S2" 80.39216 36.07843 29.80392 35.60208 25.93376 14.63545 
255 "G4" 83.13725 100.0000 100.0000 69.64638 75.82604 72.27762 
256 "K5" 34.90196 30.98039 23.13725 10.19607 10.16726 6.165196 
257 "H20" 52.54902 44.70588 42.74510 23.04539 22.01296 17.81090 
258 "V15" 0.00000 78.82353 76.86275 6.381089 10.25592 33.32693 
259 "F22" 38.03922 84.31373 64.70588 20.28195 32.28028 21.20777 
260 "E20" 76.07843 45.49020 0.00000 30.89597 24.48028 2.282807 
261 "C7" 24.70588 14.90196 100.0000 7.650139 4.987487 28.55447 
262 "C2" 57.64706 0.00000 71.76471 16.09780 8.742349 15.24279 
263 "E18" 100.0000 60.39216 23.92157 52.31626 42.32706 5.485170 
264 "Z2" 100.0000 19.21569 100.0000 53.51553 32.84491 36.05146 
265 "I6" 24.31373 67.45098 71.37255 12.93424 18.66147 34.38412 
266 "H7" 0.00000 100.0000 51.37255 2.710791 9.785742 7.943981 
267 "L6" 84.70588 79.60784 0.00000 48.45275 49.68721 3.207064 
268 "T1" 47.84314 49.01961 21.17647 16.56834 18.45434 4.186833 
269 "I14" 71.76471 76.86275 63.52941 45.63966 50.08187 33.37812 
270 "D5" 29.41176 65.49020 63.92157 14.13426 20.47703 26.27974 
271 "C11" 34.50980 85.09804 45.49020 15.05479 27.57293 9.661527 
272 "R1" 27.84314 40.78431 15.68627 6.845734 9.677311 3.413021 
273 "D1" 13.72549 27.05882 0.00000 2.650204 3.887952 1.915762 
274 "Q16" 37.25490 14.90196 13.33333 8.739144 6.486325 4.567132 
275 "K14" 100.0000 71.37255 49.41176 61.66826 55.39228 21.11310 
276 "E6" 40.00000 49.80392 0.00000 11.57665 14.24747 2.204278 
277 "S12" 32.94118 55.68627 20.39216 9.341233 14.59997 4.133713 
278 "O6" 21.56863 100.0000 50.58824 7.739980 20.41243 8.564804 
279 "C3" 84.31373 100.0000 79.21569 61.33405 71.08012 44.50640 
280 "P12" 23.13725 29.80392 50.19608 7.871164 8.062712 17.99842 
281 "A13" 38.43137 100.0000 91.76471 26.74694 39.64888 49.10247 
282 "E17" 85.49020 65.09804 100.0000 56.22726 53.60996 60.75231 
283 "K9" 40.00000 17.25490 36.47059 12.07927 9.015963 11.10185 
284 "B18" 11.76471 51.76471 56.07843 5.988097 8.897062 20.57682 
285 "P16" 86.66667 40.78431 38.03922 43.44311 32.01602 23.53340 
286 "Q21" 35.68627 23.92157 38.03922 11.57667 9.981139 12.75620 
287 "U13" 32.94118 38.43137 25.49020 9.960418 11.70961 5.914779 
288 "L5" 50.19608 41.96078 54.90196 22.66830 21.56740 25.40361 
289 "E4" 0.00000 73.72549 24.31373 1.983613 6.395458 3.024241 
290 "G8" 70.19608 14.50980 69.01961 29.02311 17.91958 22.40741 
291 "D13" 11.76471 77.25490 89.01961 10.50133 14.62976 46.78109 
292 "Z21" 29.01961 44.31373 37.25490 9.972786 13.08447 9.866021 
293 "Q13" 31.76471 21.96078 80.39216 10.96988 8.725275 29.98467 
294 "U3" 20.00000 30.58824 36.07843 6.066108 7.163630 10.59652 
295 "P20" 77.25490 69.41176 66.66667 50.90374 49.84821 41.23401 
296 "C10" 34.50980 25.49020 22.35294 9.550738 8.628077 6.136557 
297 "F14" 16.86275 35.29412 10.58824 3.387341 5.603552 2.603734 
298 "R12" 100.0000 61.96078 71.37255 64.82381 53.50267 48.80643 
299 "S3" 35.68627 67.05882 60.00000 17.34031 24.33268 22.45392 
300 "X9" 57.64706 33.33333 24.70588 20.36705 16.33058 8.184545 
301 "M21" 50.58824 28.62745 100.0000 20.24873 16.88628 42.36367 
302 "M13" 43.13725 100.0000 54.11765 21.96760 37.55651 12.83273 
303 "R17" 18.82353 69.80392 100.0000 12.83626 15.73070 50.96847 
304 "M22" 48.23529 67.05882 61.56863 25.99120 31.47214 26.75176 
305 "K6" 81.96078 100.0000 27.05882 43.65936 55.97937 6.567538 
306 "E2" 83.92157 32.94118 0.00000 31.91112 21.25931 2.051273 
307 "F16" 25.49020 55.68627 69.01961 12.63480 15.47835 33.33021 
308 "S21" 36.86275 69.80392 77.64706 22.50005 27.67005 43.13108 
309 "J12" 70.58824 42.74510 50.19608 34.76280 27.78162 27.04308 
310 "A10" 69.41176 36.07843 22.35294 26.55686 20.37217 6.973112 
311 "P10" 0.00000 76.86275 59.60784 3.540665 8.727260 14.69230 
312 "W9" 27.84314 11.37255 0.00000 5.265809 4.224141 2.302159 
313 "J21" 47.05882 19.21569 80.39216 14.92412 10.93559 28.82343 
314 "O21" 100.0000 25.88235 12.94118 41.80773 25.36227 7.150754 
315 "E22" 89.01961 85.88235 100.0000 70.33923 71.14834 70.83911 
316 "D14" 33.33333 45.88235 49.41176 13.67898 15.69935 18.42946 
317 "D7" 64.31373 58.03922 28.62745 28.98594 29.76648 6.230217 
318 "K15" 50.19608 9.803922 59.60784 14.74227 9.426154 15.69677 
319 "S7" 69.01961 65.09804 81.17647 45.66617 45.58975 52.05072 
320 "A11" 58.03922 80.39216 100.0000 40.82413 44.06390 63.04269 
321 "D9" 64.70588 17.64706 25.88235 21.72730 13.46781 11.52850 
322 "G6" 68.62745 100.0000 85.09804 49.52702 60.98144 44.87466 
323 "F15" 44.70588 67.45098 41.96078 18.11086 25.77321 10.20116 
324 "M20" 34.11765 57.64706 36.07843 11.97336 17.81947 7.822716 
325 "E8" 43.92157 14.50980 63.52941 12.46692 8.811017 19.18466 
326 "H9" 13.72549 76.07843 30.19608 4.355021 11.74083 4.384518 
327 "V7" 82.74510 72.15686 22.74510 45.10868 45.45489 5.304695 
328 "J7" 0.00000 19.21569 72.15686 3.652070 2.256204 16.38420 
329 "B22" 72.15686 62.35294 52.94118 41.45134 40.50647 26.66528 
330 "V20" 56.07843 56.07843 69.01961 30.93812 31.30423 38.19773 
331 "K19" 25.88235 13.33333 28.23529 6.298970 5.242238 6.629279 
332 "I19" 87.84314 90.58824 61.56863 60.06103 66.89138 29.09424 
333 "B20" 0.00000 28.23529 26.27451 1.871500 2.750833 4.397851 
334 "X2" 58.43137 40.78431 44.70588 26.12002 22.54877 20.74526 
335 "W2" 7.058824 100.0000 95.68627 10.44933 16.92898 49.51373 
336 "I12" 87.45098 43.13725 27.84314 40.49379 30.37911 9.850173 
337 "N2" 51.37255 59.60784 12.54902 18.16563 21.99553 3.194865 
338 "S19" 88.62745 74.90196 89.01961 65.34114 63.07641 61.68400 
339 "G16" 79.21569 63.13725 45.88235 43.95719 41.68164 18.87247 
340 "U15" 55.68627 24.31373 21.17647 17.64984 12.66994 8.049187 
341 "Q9" 74.90196 0.00000 30.98039 23.15053 12.05670 8.752802 
342 "U2" 73.33333 89.01961 83.52941 54.19632 60.56749 52.62960 
343 "G7" 26.27451 86.66667 84.31373 17.35754 26.99149 46.04420 
344 "H14" 16.47059 10.19608 0.00000 3.597514 3.439044 2.077247 
345 "N16" 35.29412 45.49020 43.13725 13.92911 16.20631 14.63873 
346 "C21" 58.43137 68.62745 57.25490 32.62019 37.54919 25.38604 
347 "I9" 42.74510 29.80392 79.60784 17.16743 15.18262 34.98737 
348 "R9" 12.94118 60.00000 38.03922 4.476207 10.11808 6.745407 
349 "U10" 70.98039 41.17647 100.0000 35.26609 30.54721 49.94743 
350 "U11" 9.411765 14.50980 0.00000 2.841003 3.230380 2.017340 
351 "O1" 65.09804 100.0000 27.05882 26.42640 40.44849 6.215958 
352 "T20" 56.07843 64.31373 70.19608 33.11654 35.55165 39.17090 
353 "D17" 72.15686 81.56863 21.96078 35.43858 43.07864 5.371272 
354 "F18" 11.76471 54.90196 68.23529 7.567992 9.832632 30.32409 
355 "M2" 40.39216 41.17647 34.11765 14.87349 15.75546 10.52161 
356 "Z1" 25.88235 28.23529 17.64706 6.573188 7.458062 4.582420 
357 "F3" 45.49020 11.76471 24.31373 12.14247 7.927716 7.556004 
358 "F20" 45.09804 85.09804 73.72549 26.84066 37.70367 32.81741 
359 "Y10" 66.27451 87.05882 88.23529 48.40328 54.52083 56.20003 
360 "H17" 58.03922 12.15686 85.49020 17.98117 11.13404 25.58576 
361 "B15" 24.70588 69.01961 53.33333 9.816428 18.13237 13.95901 
362 "I18" 72.15686 30.19608 84.31373 34.96161 27.05705 39.18956 
363 "P1" 16.47059 44.31373 0.00000 2.786078 5.424820 1.971725 
364 "X14" 18.03922 56.07843 55.29412 7.664317 12.06728 18.99617 
365 "V3" 35.29412 100.0000 78.82353 20.24524 34.89906 28.84618 
