.R2000OC RR Polar Matte (MPH-SuperPhoto)_extracted/R2000OC RR Polar Matte (MPH-SuperPhoto).ti2
CTI2   

DESCRIPTOR "Argyll Calibration Target chart information 2"
ORIGINATOR "Argyll printtarg"
CREATED "Sat Jun 27 14:10:07 2026"
TARGET_INSTRUMENT "GretagMacbeth i1 Pro"
COMP_GREY_STEPS "51"
APPROX_WHITE_POINT "95.106486 100.000000 108.844025"
TOTAL_INK_LIMIT "300.0"
COLOR_REP "iRGB"
PAPER_SIZE "215.9x279.4"
RANDOM_START "235"
STEPS_IN_PASS "21"
PASSES_IN_STRIPS2 "22"
STRIP_INDEX_PATTERN "A-Z, A-Z"
PATCH_INDEX_PATTERN "0-9,@-9,@-9;1-999"
INDEX_ORDER "STRIP_THEN_PATCH"

NUMBER_OF_FIELDS 8
BEGIN_DATA_FORMAT
SAMPLE_ID SAMPLE_LOC RGB_R RGB_G RGB_B XYZ_X XYZ_Y XYZ_Z 
END_DATA_FORMAT

NUMBER_OF_SETS 462
BEGIN_DATA
1 "P3" 100.0000 100.0000 100.0000 95.10649 100.0000 108.8440 
2 "Q7" 100.0000 100.0000 100.0000 95.10649 100.0000 108.8440 
3 "T20" 100.0000 100.0000 100.0000 95.10649 100.0000 108.8440 
4 "G13" 100.0000 100.0000 100.0000 95.10649 100.0000 108.8440 
5 "G1" 0.00000 0.00000 0.00000 1.000000 1.000000 1.000000 
6 "Q21" 0.00000 0.00000 0.00000 1.000000 1.000000 1.000000 
7 "D21" 0.00000 0.00000 0.00000 1.000000 1.000000 1.000000 
8 "U1" 0.00000 0.00000 0.00000 1.000000 1.000000 1.000000 
9 "L17" 98.03922 98.03922 98.03922 90.88154 95.55536 104.0023 
10 "F6" 96.07843 96.07843 96.07843 86.76936 91.22934 99.28985 
11 "K4" 94.11765 94.11765 94.11765 82.76907 87.02104 94.70561 
12 "L12" 92.15686 92.15686 92.15686 78.87978 82.92951 90.24857 
13 "K17" 90.19608 90.19608 90.19608 75.10060 78.95382 85.91771 
14 "I20" 87.84314 87.84314 87.84314 71.43062 75.09300 81.71199 
15 "H17" 85.88235 85.88235 85.88235 67.86892 71.34608 77.63035 
16 "O8" 83.92157 83.92157 83.92157 64.41455 67.71209 73.67173 
17 "G8" 81.96078 81.96078 81.96078 61.06659 64.19004 69.83503 
18 "U17" 80.00000 80.00000 80.00000 57.82407 60.77891 66.11917 
19 "U6" 78.03922 78.03922 78.03922 54.68602 57.47768 62.52303 
20 "K9" 76.07843 76.07843 76.07843 51.65145 54.28532 59.04549 
21 "R7" 74.11765 74.11765 74.11765 48.71938 51.20077 55.68539 
22 "I13" 72.15686 72.15686 72.15686 45.88877 48.22298 52.44158 
23 "B2" 69.80392 69.80392 69.80392 43.15862 45.35085 49.31287 
24 "M16" 67.84314 67.84314 67.84314 40.52786 42.58330 46.29808 
25 "M14" 65.88235 65.88235 65.88235 37.99544 39.91919 43.39598 
26 "B9" 63.92157 63.92157 63.92157 35.56027 37.35740 40.60534 
27 "E15" 61.96078 61.96078 61.96078 33.22127 34.89677 37.92489 
28 "S7" 60.00000 60.00000 60.00000 30.97732 32.53613 35.35337 
29 "C11" 58.03922 58.03922 58.03922 28.82727 30.27428 32.88946 
30 "E8" 56.07843 56.07843 56.07843 26.76997 28.11000 30.53184 
31 "M9" 54.11765 54.11765 54.11765 24.80424 26.04206 28.27915 
32 "I8" 52.15686 52.15686 52.15686 22.92888 24.06918 26.13003 
33 "E6" 50.19608 50.19608 50.19608 21.14266 22.19007 24.08306 
34 "H6" 47.84314 47.84314 47.84314 19.44432 20.40342 22.13680 
35 "Q2" 45.88235 45.88235 45.88235 17.83259 18.70788 20.28979 
36 "N13" 43.92157 43.92157 43.92157 16.30616 17.10207 18.54053 
37 "B19" 41.96078 41.96078 41.96078 14.86367 15.58458 16.88747 
38 "K12" 40.00000 40.00000 40.00000 13.50377 14.15396 15.32905 
39 "M5" 38.03922 38.03922 38.03922 12.22504 12.80874 13.86366 
40 "D6" 36.07843 36.07843 36.07843 11.02603 11.54738 12.48962 
41 "V20" 34.11765 34.11765 34.11765 9.905262 10.36833 11.20524 
42 "F8" 32.15686 32.15686 32.15686 8.861197 9.269978 10.00876 
43 "I6" 29.80392 29.80392 29.80392 7.892261 8.250657 8.898384 
44 "T2" 27.84314 27.84314 27.84314 6.996822 7.308656 7.872231 
45 "M7" 25.88235 25.88235 25.88235 6.173197 6.442202 6.928373 
46 "S10" 23.92157 23.92157 23.92157 5.419636 5.649456 6.064808 
47 "M11" 21.96078 21.96078 21.96078 4.734325 4.928509 5.279457 
48 "Q13" 20.00000 20.00000 20.00000 4.115373 4.277372 4.570151 
49 "Q15" 18.03922 18.03922 18.03922 3.560805 3.693966 3.934628 
50 "L13" 16.07843 16.07843 16.07843 3.068550 3.176114 3.370514 
51 "N6" 14.11765 14.11765 14.11765 2.636427 2.721521 2.875311 
52 "U4" 12.15686 12.15686 12.15686 2.262133 2.327763 2.446377 
53 "U12" 10.19608 10.19608 10.19608 1.943213 1.992260 2.080902 
54 "K5" 7.843137 7.843137 7.843137 1.677041 1.712247 1.775874 
55 "Q8" 5.882353 5.882353 5.882353 1.460775 1.484735 1.528038 
56 "U7" 3.921569 3.921569 3.921569 1.291307 1.306454 1.333831 
57 "V1" 1.960784 1.960784 1.960784 1.145676 1.153251 1.166941 
58 "E21" 100.0000 100.0000 0.00000 77.23538 92.85269 14.71507 
59 "O16" 0.00000 100.0000 0.00000 36.40521 71.80052 12.80184 
60 "R21" 0.00000 0.00000 100.0000 18.87111 8.147314 95.12896 
61 "Q6" 100.0000 0.00000 100.0000 59.70128 29.19948 97.04219 
62 "F1" 100.0000 0.00000 0.00000 41.83017 22.05217 2.913230 
63 "J18" 0.00000 100.0000 100.0000 54.27632 78.94783 106.9308 
64 "H9" 0.00000 62.74510 100.0000 31.39557 33.19275 99.30382 
65 "L18" 100.0000 0.00000 59.60784 47.46099 24.30414 32.57133 
66 "D1" 100.0000 40.39216 0.00000 46.63589 31.66226 4.515150 
67 "J1" 0.00000 100.0000 39.21569 38.69362 72.71574 24.85511 
68 "E9" 53.33333 100.0000 0.00000 46.42134 76.96487 13.27117 
69 "U8" 53.72549 0.00000 100.0000 29.04417 13.39258 95.60565 
70 "K18" 0.00000 60.00000 0.00000 12.34416 23.68515 4.781419 
71 "Q20" 0.00000 0.00000 49.41176 4.731178 2.492236 20.65250 
72 "O12" 100.0000 51.37255 100.0000 67.78755 45.36977 99.73764 
73 "R15" 40.39216 0.00000 0.00000 6.507823 3.839852 1.258087 
74 "M6" 100.0000 100.0000 40.00000 79.62463 93.80824 27.29952 
75 "D14" 27.84314 100.0000 100.0000 56.85111 80.27541 107.0514 
76 "P4" 26.27451 60.39216 100.0000 32.55529 32.12799 99.03721 
77 "E13" 64.70588 36.86275 0.00000 20.33209 16.84407 3.040180 
78 "R14" 79.60784 100.0000 100.0000 78.57184 91.47468 108.0692 
79 "E19" 0.00000 48.62745 41.17647 10.63251 16.21990 16.67779 
80 "K21" 31.76471 0.00000 44.31373 7.308244 3.909480 16.77902 
81 "R5" 100.0000 51.37255 40.39216 52.35952 39.19200 18.49982 
82 "B3" 40.00000 100.0000 42.35294 44.49589 75.66425 27.07470 
83 "R12" 0.00000 41.96078 100.0000 24.04378 18.49121 96.85320 
84 "N14" 28.62745 0.00000 100.0000 21.62228 9.565828 95.25787 
85 "E14" 100.0000 0.00000 39.21569 44.10493 22.96193 14.89462 
86 "G5" 100.0000 100.0000 62.35294 83.46875 95.34564 47.54689 
87 "B5" 0.00000 100.0000 62.35294 42.64298 74.29523 45.65681 
88 "L16" 0.00000 19.60784 0.00000 2.116959 3.233605 1.372323 
89 "H13" 0.00000 0.00000 76.07843 10.64831 4.858714 51.81863 
90 "O3" 100.0000 81.56863 0.00000 64.10266 66.59092 10.33746 
91 "S11" 41.17647 62.35294 0.00000 18.97917 28.47320 5.356198 
92 "T19" 83.13725 51.76471 100.0000 54.00897 38.35290 99.10887 
93 "D5" 75.29412 100.0000 0.00000 57.90939 82.88814 13.80948 
94 "A10" 80.00000 0.00000 0.00000 25.59408 13.68079 2.152436 
95 "U20" 60.39216 100.0000 50.58824 53.51613 80.17264 33.92755 
96 "N7" 100.0000 20.39216 76.86275 52.89580 28.40018 55.26813 
97 "S14" 100.0000 85.09804 100.0000 84.31095 78.41194 105.2455 
98 "S21" 47.45098 0.00000 57.25490 13.87441 7.048206 28.22565 
99 "I11" 41.56863 18.82353 100.0000 25.84388 13.27258 95.75104 
100 "M18" 0.00000 49.41176 81.17647 19.51531 20.18757 62.18421 
101 "N16" 60.78431 58.43137 0.00000 24.92730 29.04385 5.153072 
102 "R8" 100.0000 34.50980 100.0000 63.16891 36.13378 98.19808 
103 "M19" 100.0000 40.39216 59.60784 52.26765 33.92113 34.15810 
104 "J21" 82.35294 0.00000 43.52941 30.06755 15.65990 17.13923 
105 "V21" 100.0000 19.21569 0.00000 42.91840 24.22831 3.275975 
106 "S20" 0.00000 34.11765 60.39216 10.16991 10.05316 32.68899 
107 "L9" 79.21569 100.0000 33.33333 62.06964 84.84434 22.52750 
108 "C9" 32.54902 41.17647 0.00000 9.542436 12.79252 2.826386 
109 "S19" 63.92157 83.13725 100.0000 57.12862 62.47610 103.6010 
110 "T1" 27.45098 100.0000 0.00000 38.94016 73.10755 12.92062 
111 "B12" 18.82353 0.00000 0.00000 2.221853 1.629991 1.057254 
112 "K10" 0.00000 100.0000 18.82353 36.93204 72.01122 15.57670 
113 "E11" 0.00000 83.52941 78.03922 34.76380 52.10904 62.86077 
114 "B1" 75.68627 0.00000 82.35294 34.19503 16.78814 62.46002 
115 "U13" 54.50980 100.0000 100.0000 64.88989 84.42022 107.4281 
116 "H4" 100.0000 76.47059 82.74510 72.95394 65.58731 70.97051 
117 "P16" 0.00000 82.74510 100.0000 42.02974 54.45811 102.8486 
118 "B13" 0.00000 82.35294 35.29412 25.67118 47.42923 18.18668 
119 "T18" 15.29412 100.0000 71.76471 45.71224 75.62021 57.42418 
120 "L1" 17.25490 0.00000 60.39216 7.787692 3.831557 31.47513 
121 "K20" 0.00000 16.07843 16.47059 2.207898 2.751396 3.450621 
122 "T7" 0.00000 0.00000 24.31373 1.858898 1.343505 5.523906 
123 "P21" 100.0000 0.00000 20.00000 42.41314 22.28532 5.983794 
124 "H11" 100.0000 100.0000 82.74510 88.92877 97.52930 76.30537 
125 "K2" 100.0000 68.23529 37.64706 58.86503 52.74616 18.98769 
126 "H10" 100.0000 0.00000 81.17647 53.03880 26.53491 61.95022 
127 "T5" 0.00000 81.96078 0.00000 23.47302 45.93975 8.491068 
128 "B10" 100.0000 16.47059 38.43137 44.84317 24.58837 14.67760 
129 "N20" 43.92157 0.00000 34.11765 9.313576 5.090885 10.21834 
130 "C5" 54.50980 38.43137 100.0000 33.76430 22.29893 97.07624 
131 "L15" 48.23529 54.11765 100.0000 36.02649 30.39994 98.52082 
132 "F5" 41.56863 20.78431 0.00000 8.092379 6.531110 1.694123 
133 "L20" 57.25490 100.0000 32.15686 49.65855 78.46054 21.25076 
134 "K8" 80.39216 63.52941 0.00000 38.59721 39.29150 6.411198 
135 "D7" 77.25490 100.0000 67.45098 66.49124 86.46450 52.50485 
136 "J5" 0.00000 54.11765 18.82353 10.50469 19.14899 6.813515 
137 "B8" 38.03922 100.0000 61.96078 47.42570 76.77679 45.17793 
138 "J13" 50.19608 0.00000 81.96078 21.17754 10.08787 61.32725 
139 "M17" 100.0000 61.17647 0.00000 53.52271 45.43397 6.810775 
140 "M12" 26.27451 35.68627 87.05882 20.06692 14.78822 71.43997 
141 "C16" 0.00000 37.64706 0.00000 5.148296 9.295431 2.382777 
142 "P12" 66.66667 37.25490 58.43137 26.76491 19.62135 31.55861 
143 "C8" 40.39216 87.84314 100.0000 50.78033 63.71825 104.1752 
144 "B21" 79.21569 0.00000 20.78431 25.70016 13.66164 5.489939 
145 "B7" 37.25490 61.96078 45.09804 20.86714 28.88468 21.50730 
146 "H14" 72.94118 38.03922 100.0000 43.20929 26.91056 97.46896 
147 "K16" 57.64706 80.39216 34.11765 36.14204 50.84251 17.60496 
148 "F14" 78.43137 0.00000 100.0000 42.53367 20.34781 96.23775 
149 "E3" 60.78431 79.21569 0.00000 35.43958 49.93719 8.632434 
150 "T10" 100.0000 100.0000 20.00000 77.82548 93.08869 17.82317 
151 "T4" 55.29412 30.58824 39.21569 16.89178 12.92342 14.43432 
152 "Q1" 16.86275 12.94118 100.0000 20.39832 9.728265 95.35369 
153 "A18" 28.62745 68.62745 72.15686 27.35893 36.00435 51.18078 
154 "U9" 100.0000 64.31373 58.43137 60.27868 50.32888 35.63213 
155 "H19" 0.00000 16.47059 34.90196 3.603609 3.350042 10.67723 
156 "J17" 67.45098 60.39216 100.0000 47.04639 39.63847 99.72373 
157 "O14" 100.0000 20.39216 57.25490 48.18794 26.51898 30.46623 
158 "T16" 60.39216 0.00000 0.00000 14.14889 7.779610 1.616134 
159 "E16" 100.0000 42.74510 19.21569 47.82769 33.17998 7.581804 
160 "D10" 74.50980 62.35294 38.43137 36.51514 37.35065 17.58470 
161 "O11" 0.00000 32.15686 79.21569 14.51565 11.17863 57.46762 
162 "I17" 40.00000 82.35294 0.00000 29.17937 49.36871 8.852415 
163 "P2" 100.0000 81.56863 20.78431 64.72814 66.83830 13.64046 
164 "D11" 67.05882 100.0000 86.66667 65.82242 85.47947 81.36630 
165 "A1" 17.64706 0.00000 34.50980 3.809489 2.248808 10.14783 
166 "F15" 14.90196 49.41176 100.0000 27.05563 23.33161 97.62891 
167 "A13" 45.49020 14.11765 56.07843 13.70546 7.922660 27.32647 
168 "C18" 22.35294 0.00000 83.52941 14.60351 6.635061 63.87210 
169 "P20" 0.00000 100.0000 82.74510 48.02669 76.44838 74.01338 
170 "E2" 100.0000 58.82353 76.47059 62.41316 47.60937 57.89433 
171 "I21" 63.92157 100.0000 14.11765 51.75989 79.68081 15.17444 
172 "S12" 100.0000 83.92157 44.70588 68.56353 70.68708 26.70277 
173 "D16" 17.64706 100.0000 14.50980 37.81417 72.48840 14.60903 
174 "G7" 58.82353 16.07843 79.60784 24.87197 13.22711 58.03322 
175 "A17" 17.25490 33.33333 69.80392 13.24446 11.22019 44.10692 
176 "O5" 23.52941 56.07843 23.13725 13.27296 21.57129 8.416191 
177 "O9" 90.19608 30.58824 82.74510 47.79014 27.80561 65.02626 
178 "R17" 0.00000 31.37255 43.52941 6.692356 7.843459 16.89788 
179 "N21" 39.60784 100.0000 18.43137 42.22042 74.74053 15.70682 
180 "D13" 0.00000 50.98039 61.17647 14.76169 19.05522 34.77542 
181 "D3" 49.80392 33.72549 76.86275 22.77487 15.92135 54.27909 
182 "E18" 0.00000 83.52941 54.50980 29.06186 49.76315 33.03000 
183 "G10" 20.39216 30.19608 0.00000 4.982206 6.905187 1.930138 
184 "E20" 31.37255 10.19608 59.21569 10.17267 5.618646 30.55446 
185 "G3" 100.0000 62.74510 18.43137 54.70220 46.98093 9.707244 
186 "P10" 56.07843 84.31373 77.25490 46.27448 58.88950 61.89064 
187 "G16" 78.43137 30.98039 27.05882 28.50016 19.15330 8.618753 
188 "G15" 0.00000 34.90196 21.56863 5.212817 8.322215 5.803621 
189 "K13" 78.82353 80.00000 18.82353 46.79271 56.40876 12.00556 
190 "J10" 47.05882 71.76471 100.0000 43.21128 45.51852 101.0607 
191 "V18" 43.52941 14.11765 22.74510 8.893994 5.890394 5.502352 
192 "Q4" 17.25490 88.62745 100.0000 46.91459 62.72774 104.1876 
193 "B16" 49.80392 57.25490 38.43137 22.05506 26.80667 16.35307 
194 "R3" 71.76471 11.37255 48.62745 24.37861 13.27277 20.98426 
195 "E1" 100.0000 17.64706 100.0000 60.61614 31.02895 97.34715 
196 "L7" 47.05882 100.0000 85.88235 56.72586 80.81255 79.88864 
197 "Q14" 100.0000 81.96078 66.66667 71.52136 69.93044 48.26369 
198 "C12" 35.29412 0.00000 70.98039 13.38712 6.434516 44.56054 
199 "A21" 0.00000 22.35294 100.0000 20.33557 11.07583 95.61712 
200 "T9" 34.50980 0.00000 18.82353 5.464232 3.241834 3.914310 
201 "D15" 64.70588 46.27451 70.19608 30.82424 24.95541 46.20489 
202 "F19" 77.25490 74.11765 49.01961 45.49119 50.16167 27.36459 
203 "V4" 89.80392 52.15686 11.37255 41.46008 34.19884 6.417102 
204 "J3" 32.15686 67.45098 13.72549 19.27966 31.99240 7.573955 
205 "D19" 0.00000 66.66667 80.78431 26.17837 33.72906 63.73525 
206 "S18" 63.92157 0.00000 40.78431 18.30812 9.640579 14.60790 
207 "I12" 0.00000 16.07843 59.60784 7.427217 4.815474 31.01323 
208 "A3" 21.96078 43.52941 61.96078 14.39165 15.60203 35.09774 
209 "J12" 83.52941 100.0000 15.29412 63.91962 85.94430 16.01981 
210 "D18" 100.0000 67.84314 100.0000 74.56875 58.93027 101.9981 
211 "Q16" 22.74510 79.60784 66.66667 30.94304 46.89128 45.84562 
212 "G21" 80.78431 21.56863 0.00000 27.61537 16.71447 2.631567 
213 "F18" 63.52941 29.01961 10.19608 18.31703 13.52630 3.498912 
214 "I9" 16.86275 80.00000 35.29412 25.12814 44.85567 17.84072 
215 "G14" 60.00000 18.43137 0.00000 15.07373 9.749482 1.947667 
216 "E10" 79.21569 40.39216 42.74510 32.67221 24.16689 18.08694 
217 "E7" 18.43137 100.0000 53.33333 41.92921 74.14335 35.86876 
218 "P13" 9.803922 72.15686 73.72549 27.28513 38.56120 54.05975 
219 "T6" 50.58824 72.94118 87.05882 40.33320 45.50585 76.13293 
220 "O20" 76.07843 26.66667 11.37255 25.40207 16.63458 3.885696 
221 "S17" 49.01961 89.41176 51.76471 41.07787 62.06913 32.36678 
222 "N5" 43.92157 53.33333 10.98039 16.51056 21.89778 5.294188 
223 "T17" 82.74510 77.64706 100.0000 65.38542 61.82482 103.0405 
224 "K7" 0.00000 67.05882 58.43137 20.85924 32.09336 34.20275 
225 "A2" 61.17647 79.60784 48.23529 39.24027 51.55064 27.20099 
226 "V16" 63.92157 17.64706 100.0000 34.70281 17.68996 96.13714 
227 "B15" 30.98039 16.86275 75.29412 14.48700 8.128639 51.22923 
228 "B4" 83.92157 58.03922 54.11765 43.48930 38.02867 29.81549 
229 "R4" 28.62745 46.27451 76.07843 19.72321 18.97012 54.20941 
230 "O6" 76.07843 24.70588 56.86275 29.73172 17.85090 29.08381 
231 "K14" 0.00000 65.09804 36.07843 16.34013 28.59572 15.61299 
232 "Q10" 13.33333 31.76471 54.90196 9.200486 8.961242 26.51472 
233 "C20" 39.60784 89.80392 10.98039 34.23774 59.19763 11.54813 
234 "O7" 35.68627 40.39216 100.0000 27.98419 19.97213 96.93152 
235 "I2" 31.76471 31.76471 73.72549 16.31720 12.22353 49.49692 
236 "U16" 100.0000 34.11765 39.21569 47.50566 29.78440 15.96051 
237 "M20" 64.31373 63.52941 16.47059 29.31499 34.44356 8.150257 
238 "V19" 81.56863 100.0000 50.98039 66.08632 86.64133 35.08265 
239 "M10" 100.0000 21.56863 19.21569 43.74824 25.01208 6.253265 
240 "P19" 58.43137 0.00000 18.82353 13.77460 7.524818 4.387991 
241 "C14" 81.96078 82.74510 0.00000 50.11583 60.57698 9.913251 
242 "A11" 77.25490 49.80392 85.49020 43.72610 32.73180 70.29629 
243 "L4" 54.11765 33.72549 20.39216 15.19964 13.09278 5.829259 
244 "A15" 49.01961 40.39216 0.00000 14.13267 14.86477 2.984630 
245 "U18" 0.00000 16.07843 82.35294 13.33208 7.179371 62.10757 
246 "A5" 18.43137 51.37255 0.00000 10.21812 17.67884 3.734000 
247 "V9" 32.54902 91.37255 90.19608 47.40747 65.91714 85.10327 
248 "G19" 40.00000 38.43137 64.31373 17.35892 15.14044 37.50076 
249 "H12" 20.78431 14.50980 0.00000 3.132785 3.091752 1.291439 
250 "P18" 9.803922 48.23529 27.05882 9.479994 15.67070 8.957486 
251 "N4" 21.17647 29.80392 100.0000 22.88138 13.96856 96.04142 
252 "H21" 0.00000 77.25490 17.25490 21.32273 40.91986 9.994564 
253 "J7" 70.98039 74.50980 31.37255 39.44505 47.65566 15.47494 
254 "J15" 9.411765 54.50980 89.80392 24.40982 24.95773 77.44015 
255 "R16" 48.62745 74.50980 56.47059 32.49772 43.82868 33.89659 
256 "T8" 21.56863 74.50980 100.0000 38.60250 45.32624 101.2664 
257 "B6" 25.88235 22.74510 46.66667 7.986232 6.417853 18.96596 
258 "C15" 69.01961 58.03922 78.43137 39.44237 35.25531 59.55966 
259 "V13" 100.0000 39.21569 79.21569 56.95007 35.37678 60.10701 
260 "V8" 76.07843 15.29412 22.74510 24.58828 14.16166 6.232068 
261 "A6" 27.05882 36.07843 49.80392 10.94764 11.30084 22.21968 
262 "O10" 41.96078 39.21569 14.90196 11.79829 13.21494 4.601591 
263 "J9" 67.05882 49.41176 22.74510 25.83633 24.70010 8.214970 
264 "C3" 14.50980 58.03922 50.19608 16.03982 23.78175 24.81393 
265 "Q11" 8.627451 19.21569 70.58824 10.58034 6.586111 44.49807 
266 "M1" 20.00000 69.41176 0.00000 17.83950 32.68311 6.228857 
267 "P8" 74.90196 40.39216 14.90196 27.31587 21.66324 5.438623 
268 "M8" 16.86275 87.84314 0.00000 28.25326 54.04299 9.803464 
269 "S15" 43.92157 80.39216 22.74510 30.00990 48.03488 12.56633 
270 "D4" 15.29412 100.0000 89.80392 51.23584 77.82759 86.59452 
271 "G11" 87.45098 77.25490 68.23529 58.26273 58.89303 48.85827 
272 "S1" 21.17647 100.0000 34.11765 39.60183 73.25250 21.80665 
273 "P5" 46.66667 89.01961 68.23529 43.39663 62.53235 50.23904 
274 "D12" 55.68627 27.84314 63.13725 20.61378 13.68570 35.91938 
275 "M21" 83.52941 0.00000 66.27451 35.29545 17.86279 39.61766 
276 "I16" 90.19608 28.62745 65.09804 42.43084 25.04857 39.02379 
277 "N17" 40.00000 53.72549 71.37255 23.62965 24.93108 47.98968 
278 "N2" 70.19608 89.01961 77.64706 56.68853 68.93857 64.11260 
279 "Q5" 92.15686 48.23529 69.41176 49.78061 35.57670 46.44082 
280 "R1" 13.72549 0.00000 15.68627 2.041493 1.494049 2.987159 
281 "L6" 59.21569 22.35294 50.19608 18.94080 11.97396 22.43150 
282 "V3" 55.29412 63.92157 75.29412 34.28189 36.36329 55.33062 
283 "U5" 65.09804 0.00000 63.13725 23.00624 11.60481 35.50443 
284 "L8" 48.23529 11.76471 40.78431 11.98966 7.059455 14.67904 
285 "I19" 78.43137 61.96078 21.96078 37.25816 37.47472 9.843792 
286 "G12" 67.84314 90.98039 26.27451 47.55673 67.17025 16.52236 
287 "V14" 40.00000 7.843137 89.01961 20.50851 9.829529 73.99605 
288 "A12" 20.78431 58.82353 78.03922 23.40665 27.33886 58.25517 
289 "J20" 79.21569 85.88235 34.11765 51.92216 64.40132 19.52646 
290 "I3" 31.76471 100.0000 79.60784 50.36223 77.76779 68.92362 
291 "H18" 31.37255 67.05882 30.19608 20.03469 32.08936 12.89214 
292 "S5" 91.37255 65.09804 68.62745 55.41545 48.25539 47.41707 
293 "F7" 58.43137 78.03922 14.50980 33.68728 47.75518 10.03907 
294 "R18" 90.19608 78.43137 29.41176 54.97106 58.88553 15.95034 
295 "S4" 55.68627 100.0000 69.01961 55.28726 80.63335 54.43236 
296 "A14" 33.72549 74.11765 58.43137 28.12755 41.09239 35.32757 
297 "F12" 25.09804 57.64706 60.39216 19.24085 25.12563 35.13479 
298 "L21" 11.37255 73.33333 9.803922 19.23933 36.44659 7.801577 
299 "K15" 58.43137 15.68627 33.33333 15.60766 9.438801 10.33291 
300 "T3" 16.86275 91.76471 62.35294 37.35907 62.39822 43.27353 
301 "F3" 44.70588 55.68627 87.84314 30.68767 28.93956 74.60092 
302 "C4" 50.19608 27.45098 8.627451 12.08783 9.885356 2.892640 
303 "J14" 26.66667 7.058824 27.05882 4.614845 3.061105 6.715161 
304 "S3" 66.27451 38.03922 29.41176 22.67508 18.27719 9.772449 
305 "O13" 17.25490 29.80392 40.00000 6.937811 7.583528 14.36871 
306 "L19" 47.05882 32.94118 51.76471 15.92289 12.86902 24.22675 
307 "O18" 85.88235 90.98039 71.76471 67.17772 76.67975 56.40657 
308 "O15" 64.31373 75.29412 83.92157 46.82766 50.98230 71.14606 
309 "U15" 87.05882 70.98039 40.00000 49.52109 49.95502 20.38038 
310 "N3" 56.86275 13.33333 20.78431 13.71008 8.323105 5.051310 
311 "C7" 83.13725 9.019608 90.19608 42.25654 21.09942 76.67434 
312 "T13" 58.03922 47.05882 9.803922 20.02052 20.72968 4.708266 
313 "H15" 45.49020 70.58824 69.41176 32.15301 40.25603 48.07112 
314 "P15" 89.80392 60.39216 92.54902 59.63089 46.56379 85.62205 
315 "L11" 77.64706 20.39216 72.15686 33.89650 18.79318 47.54694 
316 "C1" 28.62745 83.92157 24.31373 28.48335 50.54902 13.67025 
317 "E5" 83.52941 22.74510 100.0000 47.60064 25.21814 96.91099 
318 "O19" 9.803922 46.66667 52.54902 12.10896 15.84968 25.44469 
319 "V15" 60.78431 42.35294 47.05882 23.06364 19.81538 21.15139 
320 "A8" 10.19608 13.72549 89.41176 15.89734 7.954893 74.32200 
321 "O1" 18.82353 20.78431 60.78431 9.311315 6.473767 32.21910 
322 "D8" 58.82353 59.21569 88.23529 38.00709 34.88298 76.17996 
323 "I5" 81.56863 43.92157 0.00000 32.37231 25.71862 4.119090 
324 "A9" 30.58824 31.37255 9.411765 7.091511 8.304668 2.937037 
325 "J6" 52.15686 46.66667 79.21569 27.63572 23.26687 59.11326 
326 "K11" 27.45098 15.68627 90.19608 18.47563 9.484214 76.11940 
327 "N19" 14.90196 69.80392 59.21569 22.95416 34.93549 35.21071 
328 "Q3" 60.00000 28.23529 90.98039 30.80972 18.11102 78.65790 
329 "R13" 16.86275 43.92157 41.17647 10.26451 14.01436 16.23987 
330 "I4" 16.47059 65.09804 90.58824 29.87370 34.37500 81.13441 
331 "G2" 65.09804 13.72549 67.84314 24.66421 13.22655 41.37732 
332 "R9" 60.78431 7.058824 90.19608 28.72145 13.97843 76.53252 
333 "Q17" 7.450980 68.23529 47.05882 19.57353 32.38070 23.71200 
334 "F11" 84.70588 100.0000 81.56863 75.76834 90.78955 73.62108 
335 "U19" 28.62745 10.58824 11.37255 4.345911 3.270782 2.444599 
336 "M4" 20.39216 81.96078 49.80392 28.65254 48.16167 28.59362 
337 "G20" 89.80392 89.80392 58.82353 65.89527 74.81888 40.27205 
338 "V17" 9.411765 92.54902 29.01961 32.20309 60.86629 17.40037 
339 "F2" 18.82353 23.92157 81.17647 15.02375 9.385019 60.50333 
340 "L3" 31.76471 89.01961 71.37255 39.98503 60.59661 54.10698 
341 "I7" 93.33333 18.03922 87.84314 50.27947 26.27302 73.45358 
342 "S6" 70.98039 89.41176 9.803922 47.51508 65.69616 11.96503 
343 "K19" 76.07843 84.70588 57.64706 52.48760 63.02932 37.41812 
344 "C17" 35.29412 63.13725 84.70588 30.02052 33.29319 69.96349 
345 "M13" 87.45098 19.60784 14.90196 32.58612 18.91612 4.573039 
346 "G18" 50.19608 70.98039 42.74510 28.90154 39.26606 21.37672 
347 "H5" 91.37255 70.98039 3.529412 50.68958 50.79127 8.253765 
348 "H8" 65.88235 50.98039 38.43137 27.04209 25.93083 15.86121 
349 "H3" 12.15686 69.41176 24.70588 18.02606 32.77366 10.92085 
350 "S16" 71.76471 26.66667 40.39216 24.71517 15.95543 15.40915 
351 "E12" 18.03922 36.47059 14.90196 6.314165 9.418017 4.164136 
352 "I15" 29.01961 50.98039 40.39216 14.13917 19.28478 16.56226 
353 "T12" 61.56863 78.43137 63.52941 41.67503 51.68109 42.62202 
354 "J2" 36.86275 21.96078 14.50980 7.324802 6.272561 3.446514 
355 "C21" 36.47059 28.62745 92.54902 22.91470 14.02895 81.30743 
356 "Q19" 96.07843 52.15686 52.94118 51.13397 38.74460 28.34195 
357 "P1" 8.627451 5.490196 55.29412 6.204394 3.359918 25.99426 
358 "T21" 87.05882 36.86275 94.50980 50.66558 30.72405 86.90647 
359 "I14" 89.01961 7.058824 29.01961 33.82886 18.10581 8.923974 
360 "F13" 81.17647 47.45098 26.27451 34.33381 28.13979 9.735964 
361 "V6" 54.11765 54.50980 21.56863 21.09407 24.77360 8.104793 
362 "C19" 86.66667 42.35294 54.11765 40.34302 28.64426 28.19977 
363 "O4" 64.70588 25.09804 23.92157 19.05778 12.87819 6.708455 
364 "K6" 7.450980 84.70588 89.01961 39.29137 55.14223 81.62612 
365 "T11" 9.803922 24.70588 26.66667 4.163805 5.086195 7.047020 
