.R2000OC RR Polar Matte (MPH-SuperPhoto)_extracted/R2000OC RR Polar Matte (MPH-SuperPhoto).ti1
CTI1   

DESCRIPTOR "Argyll Calibration Target chart information 1"
ORIGINATOR "Argyll targen"
CREATED "Sat Jun 27 14:10:05 2026"
APPROX_WHITE_POINT "95.106486 100.000000 108.844025"
COLOR_REP "iRGB"
TOTAL_INK_LIMIT "300.0"
WHITE_COLOR_PATCHES "4"
BLACK_COLOR_PATCHES "4"
COMP_GREY_STEPS "51"
OFPS_PATCHES "405"

NUMBER_OF_FIELDS 7
BEGIN_DATA_FORMAT
SAMPLE_ID RGB_R RGB_G RGB_B XYZ_X XYZ_Y XYZ_Z 
END_DATA_FORMAT

NUMBER_OF_SETS 462
BEGIN_DATA
1 100.0000 100.0000 100.0000 95.10649 100.0000 108.8440 
2 100.0000 100.0000 100.0000 95.10649 100.0000 108.8440 
3 100.0000 100.0000 100.0000 95.10649 100.0000 108.8440 
4 100.0000 100.0000 100.0000 95.10649 100.0000 108.8440 
5 0.00000 0.00000 0.00000 1.000000 1.000000 1.000000 
6 0.00000 0.00000 0.00000 1.000000 1.000000 1.000000 
7 0.00000 0.00000 0.00000 1.000000 1.000000 1.000000 
8 0.00000 0.00000 0.00000 1.000000 1.000000 1.000000 
9 98.00000 98.00000 98.00000 90.88154 95.55536 104.0023 
10 96.00000 96.00000 96.00000 86.76936 91.22934 99.28985 
11 94.00000 94.00000 94.00000 82.76907 87.02104 94.70561 
12 92.00000 92.00000 92.00000 78.87978 82.92951 90.24857 
13 90.00000 90.00000 90.00000 75.10060 78.95382 85.91771 
14 88.00000 88.00000 88.00000 71.43062 75.09300 81.71199 
15 86.00000 86.00000 86.00000 67.86892 71.34608 77.63035 
16 84.00000 84.00000 84.00000 64.41455 67.71209 73.67173 
17 82.00000 82.00000 82.00000 61.06659 64.19004 69.83503 
18 80.00000 80.00000 80.00000 57.82407 60.77891 66.11917 
19 78.00000 78.00000 78.00000 54.68602 57.47768 62.52303 
20 76.00000 76.00000 76.00000 51.65145 54.28532 59.04549 
21 74.00000 74.00000 74.00000 48.71938 51.20077 55.68539 
22 72.00000 72.00000 72.00000 45.88877 48.22298 52.44158 
23 70.00000 70.00000 70.00000 43.15862 45.35085 49.31287 
24 68.00000 68.00000 68.00000 40.52786 42.58330 46.29808 
25 66.00000 66.00000 66.00000 37.99544 39.91919 43.39598 
26 64.00000 64.00000 64.00000 35.56027 37.35740 40.60534 
27 62.00000 62.00000 62.00000 33.22127 34.89677 37.92489 
28 60.00000 60.00000 60.00000 30.97732 32.53613 35.35337 
29 58.00000 58.00000 58.00000 28.82727 30.27428 32.88946 
30 56.00000 56.00000 56.00000 26.76997 28.11000 30.53184 
31 54.00000 54.00000 54.00000 24.80424 26.04206 28.27915 
32 52.00000 52.00000 52.00000 22.92888 24.06918 26.13003 
33 50.00000 50.00000 50.00000 21.14266 22.19007 24.08306 
34 48.00000 48.00000 48.00000 19.44432 20.40342 22.13680 
35 46.00000 46.00000 46.00000 17.83259 18.70788 20.28979 
36 44.00000 44.00000 44.00000 16.30616 17.10207 18.54053 
37 42.00000 42.00000 42.00000 14.86367 15.58458 16.88747 
38 40.00000 40.00000 40.00000 13.50377 14.15396 15.32905 
39 38.00000 38.00000 38.00000 12.22504 12.80874 13.86366 
40 36.00000 36.00000 36.00000 11.02603 11.54738 12.48962 
41 34.00000 34.00000 34.00000 9.905262 10.36833 11.20524 
42 32.00000 32.00000 32.00000 8.861197 9.269978 10.00876 
43 30.00000 30.00000 30.00000 7.892261 8.250657 8.898384 
44 28.00000 28.00000 28.00000 6.996822 7.308656 7.872231 
45 26.00000 26.00000 26.00000 6.173197 6.442202 6.928373 
46 24.00000 24.00000 24.00000 5.419636 5.649456 6.064808 
47 22.00000 22.00000 22.00000 4.734325 4.928509 5.279457 
48 20.00000 20.00000 20.00000 4.115373 4.277372 4.570151 
49 18.00000 18.00000 18.00000 3.560805 3.693966 3.934628 
50 16.00000 16.00000 16.00000 3.068550 3.176114 3.370514 
51 14.00000 14.00000 14.00000 2.636427 2.721521 2.875311 
52 12.00000 12.00000 12.00000 2.262133 2.327763 2.446377 
53 10.000000 10.000000 10.000000 1.943213 1.992260 2.080902 
54 8.000000 8.000000 8.000000 1.677041 1.712247 1.775874 
55 6.000000 6.000000 6.000000 1.460775 1.484735 1.528038 
56 4.000000 4.000000 4.000000 1.291307 1.306454 1.333831 
57 2.000000 2.000000 2.000000 1.145676 1.153251 1.166941 
58 100.0000 100.0000 0.00000 77.23538 92.85269 14.71507 
59 0.00000 100.0000 0.00000 36.40521 71.80052 12.80184 
60 0.00000 0.00000 100.0000 18.87111 8.147314 95.12896 
61 100.0000 0.00000 100.0000 59.70128 29.19948 97.04219 
62 100.0000 0.00000 0.00000 41.83017 22.05217 2.913230 
63 0.00000 100.0000 100.0000 54.27632 78.94783 106.9308 
64 0.00000 62.92385 100.0000 31.39557 33.19275 99.30382 
65 100.0000 0.00000 59.70198 47.46099 24.30414 32.57133 
66 100.0000 40.40645 0.00000 46.63589 31.66226 4.515150 
67 0.00000 100.0000 39.30518 38.69362 72.71574 24.85511 
68 53.24470 100.0000 0.00000 46.42134 76.96487 13.27117 
69 53.62646 0.00000 100.0000 29.04417 13.39258 95.60565 
70 0.00000 60.15931 0.00000 12.34416 23.68515 4.781419 
71 0.00000 0.00000 49.42776 4.731178 2.492236 20.65250 
72 100.0000 51.52120 100.0000 67.78755 45.36977 99.73764 
73 40.28803 0.00000 0.00000 6.507823 3.839852 1.258087 
74 100.0000 100.0000 40.11757 79.62463 93.80824 27.29952 
75 27.85442 100.0000 100.0000 56.85111 80.27541 107.0514 
76 26.20689 60.30372 100.0000 32.55529 32.12799 99.03721 
77 64.72442 36.84724 0.00000 20.33209 16.84407 3.040180 
78 79.47926 100.0000 100.0000 78.57184 91.47468 108.0692 
79 0.00000 48.53098 41.19438 10.63251 16.21990 16.67779 
80 31.68413 0.00000 44.41865 7.308244 3.909480 16.77902 
81 100.0000 51.50737 40.57987 52.35952 39.19200 18.49982 
82 40.01442 100.0000 42.21552 44.49589 75.66425 27.07470 
83 0.00000 41.83572 100.0000 24.04378 18.49121 96.85320 
84 28.78805 0.00000 100.0000 21.62228 9.565828 95.25787 
85 100.0000 0.00000 39.19365 44.10493 22.96193 14.89462 
86 100.0000 100.0000 62.52325 83.46875 95.34564 47.54689 
87 0.00000 100.0000 62.54323 42.64298 74.29523 45.65681 
88 0.00000 19.49328 0.00000 2.116959 3.233605 1.372323 
89 0.00000 0.00000 76.10385 10.64831 4.858714 51.81863 
90 100.0000 81.47174 0.00000 64.10266 66.59092 10.33746 
91 40.99424 62.33021 0.00000 18.97917 28.47320 5.356198 
92 83.28976 51.69388 100.0000 54.00897 38.35290 99.10887 
93 75.26592 100.0000 0.00000 57.90939 82.88814 13.80948 
94 79.91281 0.00000 0.00000 25.59408 13.68079 2.152436 
95 60.44132 100.0000 50.40980 53.51613 80.17264 33.92755 
96 100.0000 20.26655 76.85883 52.89580 28.40018 55.26813 
97 100.0000 85.16407 100.0000 84.31095 78.41194 105.2455 
98 47.35980 0.00000 57.06590 13.87441 7.048206 28.22565 
99 41.75809 18.67281 100.0000 25.84388 13.27258 95.75104 
100 0.00000 49.34448 81.17426 19.51531 20.18757 62.18421 
101 60.70328 58.28715 0.00000 24.92730 29.04385 5.153072 
102 100.0000 34.57022 100.0000 63.16891 36.13378 98.19808 
103 100.0000 40.42268 59.68686 52.26765 33.92113 34.15810 
104 82.24516 0.00000 43.45698 30.06755 15.65990 17.13923 
105 100.0000 19.22335 0.00000 42.91840 24.22831 3.275975 
106 0.00000 34.07939 60.52705 10.16991 10.05316 32.68899 
107 79.09359 100.0000 33.42541 62.06964 84.84434 22.52750 
108 32.69476 41.08534 0.00000 9.542436 12.79252 2.826386 
109 63.89788 83.14630 100.0000 57.12862 62.47610 103.6010 
110 27.63835 100.0000 0.00000 38.94016 73.10755 12.92062 
111 18.94940 0.00000 0.00000 2.221853 1.629991 1.057254 
112 0.00000 100.0000 18.79696 36.93204 72.01122 15.57670 
113 0.00000 83.44832 78.21103 34.76380 52.10904 62.86077 
114 75.60205 0.00000 82.21889 34.19503 16.78814 62.46002 
115 54.68006 100.0000 100.0000 64.88989 84.42022 107.4281 
116 100.0000 76.66628 82.90299 72.95394 65.58731 70.97051 
117 0.00000 82.89714 100.0000 42.02974 54.45811 102.8486 
118 0.00000 82.41164 35.19597 25.67118 47.42923 18.18668 
119 15.44238 100.0000 71.77181 45.71224 75.62021 57.42418 
120 17.09147 0.00000 60.40175 7.787692 3.831557 31.47513 
121 0.00000 16.16673 16.49975 2.207898 2.751396 3.450621 
122 0.00000 0.00000 24.28506 1.858898 1.343505 5.523906 
123 100.0000 0.00000 19.84401 42.41314 22.28532 5.983794 
124 100.0000 100.0000 82.90929 88.92877 97.52930 76.30537 
125 100.0000 68.11593 37.79071 58.86503 52.74616 18.98769 
126 100.0000 0.00000 81.36327 53.03880 26.53491 61.95022 
127 0.00000 81.79714 0.00000 23.47302 45.93975 8.491068 
128 100.0000 16.60801 38.41577 44.84317 24.58837 14.67760 
129 43.94220 0.00000 34.00118 9.313576 5.090885 10.21834 
130 54.48671 38.58729 100.0000 33.76430 22.29893 97.07624 
131 48.33028 54.21558 100.0000 36.02649 30.39994 98.52082 
132 41.38387 20.80519 0.00000 8.092379 6.531110 1.694123 
133 57.29399 100.0000 32.06964 49.65855 78.46054 21.25076 
134 80.29374 63.40992 0.00000 38.59721 39.29150 6.411198 
135 77.18433 100.0000 67.29793 66.49124 86.46450 52.50485 
136 0.00000 54.03538 18.97522 10.50469 19.14899 6.813515 
137 38.17501 100.0000 61.92726 47.42570 76.77679 45.17793 
138 50.16614 0.00000 81.89910 21.17754 10.08787 61.32725 
139 100.0000 60.99206 0.00000 53.52271 45.43397 6.810775 
140 26.07859 35.61652 87.25317 20.06692 14.78822 71.43997 
141 0.00000 37.67710 0.00000 5.148296 9.295431 2.382777 
142 66.54364 37.10242 58.58533 26.76491 19.62135 31.55861 
143 40.43785 87.79428 100.0000 50.78033 63.71825 104.1752 
144 79.13762 0.00000 20.82131 25.70016 13.66164 5.489939 
145 37.19058 62.01058 45.24042 20.86714 28.88468 21.50730 
146 73.10794 37.84567 100.0000 43.20929 26.91056 97.46896 
147 57.72949 80.21261 33.94214 36.14204 50.84251 17.60496 
148 78.54968 0.00000 100.0000 42.53367 20.34781 96.23775 
149 60.88161 79.38116 0.00000 35.43958 49.93719 8.632434 
150 100.0000 100.0000 19.97264 77.82548 93.08869 17.82317 
151 55.39259 30.55237 39.26253 16.89178 12.92342 14.43432 
152 16.92103 12.88699 100.0000 20.39832 9.728265 95.35369 
153 28.60725 68.45790 72.08795 27.35893 36.00435 51.18078 
154 100.0000 64.13539 58.50152 60.27868 50.32888 35.63213 
155 0.00000 16.45201 34.90405 3.603609 3.350042 10.67723 
156 67.27167 60.36656 100.0000 47.04639 39.63847 99.72373 
157 100.0000 20.27577 57.34718 48.18794 26.51898 30.46623 
158 60.29821 0.00000 0.00000 14.14889 7.779610 1.616134 
159 100.0000 42.90104 19.06798 47.82769 33.17998 7.581804 
160 74.48509 62.46697 38.42376 36.51514 37.35065 17.58470 
161 0.00000 32.13747 79.13863 14.51565 11.17863 57.46762 
162 39.83653 82.32575 0.00000 29.17937 49.36871 8.852415 
163 100.0000 81.46892 20.62831 64.72814 66.83830 13.64046 
164 66.91178 100.0000 86.51340 65.82242 85.47947 81.36630 
165 17.74487 0.00000 34.34841 3.809489 2.248808 10.14783 
166 14.95944 49.41469 100.0000 27.05563 23.33161 97.62891 
167 45.63369 14.21255 56.00330 13.70546 7.922660 27.32647 
168 22.43019 0.00000 83.62474 14.60351 6.635061 63.87210 
169 0.00000 100.0000 82.68235 48.02669 76.44838 74.01338 
170 100.0000 58.90201 76.47236 62.41316 47.60937 57.89433 
171 64.08350 100.0000 14.15367 51.75989 79.68081 15.17444 
172 100.0000 83.78018 44.76465 68.56353 70.68708 26.70277 
173 17.68288 100.0000 14.58331 37.81417 72.48840 14.60903 
174 58.76787 15.98163 79.59399 24.87197 13.22711 58.03322 
175 17.19317 33.52036 69.85495 13.24446 11.22019 44.10692 
176 23.46066 55.90126 23.12026 13.27296 21.57129 8.416191 
177 90.27974 30.70097 82.91704 47.79014 27.80561 65.02626 
178 0.00000 31.45078 43.50687 6.692356 7.843459 16.89788 
179 39.59874 100.0000 18.35823 42.22042 74.74053 15.70682 
180 0.00000 50.80810 61.05811 14.76169 19.05522 34.77542 
181 49.86214 33.52954 76.74812 22.77487 15.92135 54.27909 
182 0.00000 83.38377 54.41249 29.06186 49.76315 33.03000 
183 20.27373 30.01373 0.00000 4.982206 6.905187 1.930138 
184 31.27466 10.06821 59.35657 10.17267 5.618646 30.55446 
185 100.0000 62.55868 18.41913 54.70220 46.98093 9.707244 
186 56.23779 84.30161 77.11604 46.27448 58.88950 61.89064 
187 78.57336 30.93769 27.02810 28.50016 19.15330 8.618753 
188 0.00000 34.83949 21.67143 5.212817 8.322215 5.803621 
189 78.76394 80.14529 18.64948 46.79271 56.40876 12.00556 
190 46.90654 71.68623 100.0000 43.21128 45.51852 101.0607 
191 43.63563 13.94821 22.77461 8.893994 5.890394 5.502352 
192 17.08283 88.78331 100.0000 46.91459 62.72774 104.1876 
193 49.68502 57.42802 38.49100 22.05506 26.80667 16.35307 
194 71.80101 11.25096 48.58282 24.37861 13.27277 20.98426 
195 100.0000 17.49885 100.0000 60.61614 31.02895 97.34715 
196 47.01031 100.0000 85.91066 56.72586 80.81255 79.88864 
197 100.0000 81.84944 66.67530 71.52136 69.93044 48.26369 
198 35.20938 0.00000 70.88585 13.38712 6.434516 44.56054 
199 0.00000 22.47952 100.0000 20.33557 11.07583 95.61712 
200 34.34837 0.00000 18.63030 5.464232 3.241834 3.914310 
201 64.73386 46.24858 70.13422 30.82424 24.95541 46.20489 
202 77.36706 74.00149 49.02467 45.49119 50.16167 27.36459 
203 89.70547 52.23099 11.30266 41.46008 34.19884 6.417102 
204 32.07879 67.34485 13.62123 19.27966 31.99240 7.573955 
205 0.00000 66.52253 80.73285 26.17837 33.72906 63.73525 
206 63.73275 0.00000 40.60820 18.30812 9.640579 14.60790 
207 0.00000 15.99984 59.78958 7.427217 4.815474 31.01323 
208 22.06096 43.65209 61.91714 14.39165 15.60203 35.09774 
209 83.49810 100.0000 15.45775 63.91962 85.94430 16.01981 
210 100.0000 67.99198 100.0000 74.56875 58.93027 101.9981 
211 22.55904 79.49595 66.58900 30.94304 46.89128 45.84562 
212 80.88815 21.47870 0.00000 27.61537 16.71447 2.631567 
213 63.40561 29.10450 10.36523 18.31703 13.52630 3.498912 
214 16.77634 79.88711 35.41276 25.12814 44.85567 17.84072 
215 60.12867 18.42713 0.00000 15.07373 9.749482 1.947667 
216 79.23596 40.45863 42.68252 32.67221 24.16689 18.08694 
217 18.38150 100.0000 53.16177 41.92921 74.14335 35.86876 
218 9.926199 71.98138 73.78012 27.28513 38.56120 54.05975 
219 50.42870 72.86310 87.15812 40.33320 45.50585 76.13293 
220 76.20327 26.84609 11.38385 25.40207 16.63458 3.885696 
221 49.07386 89.52559 51.84335 41.07787 62.06913 32.36678 
222 43.86243 53.30962 10.91242 16.51056 21.89778 5.294188 
223 82.61927 77.67220 100.0000 65.38542 61.82482 103.0405 
224 0.00000 67.16953 58.51517 20.85924 32.09336 34.20275 
225 61.37111 79.45034 48.11453 39.24027 51.55064 27.20099 
226 63.82060 17.65341 100.0000 34.70281 17.68996 96.13714 
227 30.91373 16.85423 75.41521 14.48700 8.128639 51.22923 
228 83.82576 58.18827 54.21566 43.48930 38.02867 29.81549 
229 28.46615 46.08410 76.20112 19.72321 18.97012 54.20941 
230 75.94807 24.73531 56.68213 29.73172 17.85090 29.08381 
231 0.00000 64.90985 36.19413 16.34013 28.59572 15.61299 
232 13.48933 31.57735 54.73721 9.200486 8.961242 26.51472 
233 39.74521 89.71925 10.83374 34.23774 59.19763 11.54813 
234 35.84661 40.38990 100.0000 27.98419 19.97213 96.93152 
235 31.87810 31.91630 73.74053 16.31720 12.22353 49.49692 
236 100.0000 34.31302 39.08112 47.50566 29.78440 15.96051 
237 64.33394 63.38901 16.54100 29.31499 34.44356 8.150257 
238 81.46354 100.0000 51.05348 66.08632 86.64133 35.08265 
239 100.0000 21.71857 19.18756 43.74824 25.01208 6.253265 
240 58.36403 0.00000 18.94072 13.77460 7.524818 4.387991 
241 81.96517 82.77117 0.00000 50.11583 60.57698 9.913251 
242 77.16445 49.79092 85.33695 43.72610 32.73180 70.29629 
243 53.97575 33.56836 20.47764 15.19964 13.09278 5.829259 
244 48.96435 40.30243 0.00000 14.13267 14.86477 2.984630 
245 0.00000 16.01656 82.46355 13.33208 7.179371 62.10757 
246 18.61730 51.37238 0.00000 10.21812 17.67884 3.734000 
247 32.72039 91.18925 90.13120 47.40747 65.91714 85.10327 
248 39.88948 38.57931 64.18927 17.35892 15.14044 37.50076 
249 20.86485 14.68013 0.00000 3.132785 3.091752 1.291439 
250 9.776399 48.26471 27.05055 9.479994 15.67070 8.957486 
251 20.99058 29.63282 100.0000 22.88138 13.96856 96.04142 
252 0.00000 77.43701 17.25273 21.32273 40.91986 9.994564 
253 70.90813 74.43831 31.32759 39.44505 47.65566 15.47494 
254 9.533731 54.38590 89.60808 24.40982 24.95773 77.44015 
255 48.48380 74.64734 56.62701 32.49772 43.82868 33.89659 
256 21.38888 74.44664 100.0000 38.60250 45.32624 101.2664 
257 25.78637 22.60637 46.67238 7.986232 6.417853 18.96596 
258 68.83122 58.14858 78.33969 39.44237 35.25531 59.55966 
259 100.0000 39.36877 79.26840 56.95007 35.37678 60.10701 
260 76.20013 15.45731 22.65481 24.58828 14.16166 6.232068 
261 26.89689 36.02937 49.65441 10.94764 11.30084 22.21968 
262 41.77420 39.19069 14.88573 11.79829 13.21494 4.601591 
263 67.16086 49.45055 22.69773 25.83633 24.70010 8.214970 
264 14.55405 57.88976 50.17820 16.03982 23.78175 24.81393 
265 8.471688 19.08529 70.70892 10.58034 6.586111 44.49807 
266 19.92116 69.27460 0.00000 17.83950 32.68311 6.228857 
267 74.72154 40.41436 14.99566 27.31587 21.66324 5.438623 
268 16.81197 87.66765 0.00000 28.25326 54.04299 9.803464 
269 43.78103 80.48924 22.89577 30.00990 48.03488 12.56633 
270 15.28887 100.0000 89.80408 51.23584 77.82759 86.59452 
271 87.26636 77.14409 68.26857 58.26273 58.89303 48.85827 
272 21.13313 100.0000 34.05008 39.60183 73.25250 21.80665 
273 46.64354 89.19814 68.18745 43.39663 62.53235 50.23904 
274 55.56379 27.84762 63.23340 20.61378 13.68570 35.91938 
275 83.58093 0.00000 66.27186 35.29545 17.86279 39.61766 
276 90.19529 28.50711 64.96378 42.43084 25.04857 39.02379 
277 39.94679 53.87462 71.17870 23.62965 24.93108 47.98968 
278 70.14361 89.04921 77.66235 56.68853 68.93857 64.11260 
279 92.16917 48.08354 69.52075 49.78061 35.57670 46.44082 
280 13.53660 0.00000 15.50143 2.041493 1.494049 2.987159 
281 59.16964 22.46421 50.23510 18.94080 11.97396 22.43150 
282 55.32534 63.98898 75.20656 34.28189 36.36329 55.33062 
283 65.14418 0.00000 63.32966 23.00624 11.60481 35.50443 
284 48.08678 11.76170 40.95998 11.98966 7.059455 14.67904 
285 78.33036 61.79742 21.98439 37.25816 37.47472 9.843792 
286 67.86778 90.86512 26.13034 47.55673 67.17025 16.52236 
287 40.14632 7.826046 89.21123 20.50851 9.829529 73.99605 
288 20.93920 58.71854 77.93642 23.40665 27.33886 58.25517 
289 79.11887 86.00668 34.19283 51.92216 64.40132 19.52646 
290 31.63447 100.0000 79.45100 50.36223 77.76779 68.92362 
291 31.40435 67.09904 30.06827 20.03469 32.08936 12.89214 
292 91.31357 65.16807 68.62523 55.41545 48.25539 47.41707 
293 58.23885 77.95771 14.52056 33.68728 47.75518 10.03907 
294 90.25553 78.26368 29.47177 54.97106 58.88553 15.95034 
295 55.76065 100.0000 69.20548 55.28726 80.63335 54.43236 
296 33.62821 74.09788 58.29799 28.12755 41.09239 35.32757 
297 24.91595 57.75149 60.53982 19.24085 25.12563 35.13479 
298 11.38871 73.27172 9.868132 19.23933 36.44659 7.801577 
299 58.39449 15.51931 33.26162 15.60766 9.438801 10.33291 
300 16.72337 91.88753 62.22566 37.35907 62.39822 43.27353 
301 44.58258 55.61164 87.80639 30.68767 28.93956 74.60092 
302 50.15060 27.30992 8.703794 12.08783 9.885356 2.892640 
303 26.60562 7.074555 26.89291 4.614845 3.061105 6.715161 
304 66.29593 37.93911 29.38297 22.67508 18.27719 9.772449 
305 17.11175 29.79706 39.94227 6.937811 7.583528 14.36871 
306 46.98727 32.92576 51.87876 15.92289 12.86902 24.22675 
307 86.07601 91.10698 71.70532 67.17772 76.67975 56.40657 
308 64.27071 75.34746 83.86838 46.82766 50.98230 71.14606 
309 87.05870 70.89214 40.05727 49.52109 49.95502 20.38038 
310 56.75117 13.35366 20.69099 13.71008 8.323105 5.051310 
311 83.07742 9.141626 90.10476 42.25654 21.09942 76.67434 
312 58.16574 47.22134 9.739700 20.02052 20.72968 4.708266 
313 45.30094 70.74485 69.36826 32.15301 40.25603 48.07112 
314 89.90478 60.54533 92.71898 59.63089 46.56379 85.62205 
315 77.73446 20.49140 72.11157 33.89650 18.79318 47.54694 
316 28.56829 84.07442 24.42381 28.48335 50.54902 13.67025 
317 83.58450 22.92694 100.0000 47.60064 25.21814 96.91099 
318 9.942213 46.48126 52.36208 12.10896 15.84968 25.44469 
319 60.85084 42.22541 47.16383 23.06364 19.81538 21.15139 
320 10.25355 13.68929 89.45359 15.89734 7.954893 74.32200 
321 18.92368 20.74251 60.68577 9.311315 6.473767 32.21910 
322 58.96732 59.37825 88.26024 38.00709 34.88298 76.17996 
323 81.37411 43.99174 0.00000 32.37231 25.71862 4.119090 
324 30.59260 31.25340 9.354082 7.091511 8.304668 2.937037 
325 52.04552 46.79729 79.14072 27.63572 23.26687 59.11326 
326 27.62371 15.68854 90.33843 18.47563 9.484214 76.11940 
327 14.89311 69.61355 59.04998 22.95416 34.93549 35.21071 
328 60.04025 28.28081 91.15096 30.80972 18.11102 78.65790 
329 16.96046 43.95835 41.14799 10.26451 14.01436 16.23987 
330 16.53532 65.25939 90.77216 29.87370 34.37500 81.13441 
331 65.10663 13.80078 67.93026 24.66421 13.22655 41.37732 
332 60.59543 7.233832 90.38417 28.72145 13.97843 76.53252 
333 7.255404 68.16944 47.10336 19.57353 32.38070 23.71200 
334 84.74385 100.0000 81.64900 75.76834 90.78955 73.62108 
335 28.70463 10.53931 11.56262 4.345911 3.270782 2.444599 
336 20.22600 81.78778 49.87621 28.65254 48.16167 28.59362 
337 89.63216 89.62505 58.69799 65.89527 74.81888 40.27205 
338 9.388105 92.40605 29.18069 32.20309 60.86629 17.40037 
339 18.70116 23.90001 81.27782 15.02375 9.385019 60.50333 
340 31.93429 89.11333 71.24776 39.98503 60.59661 54.10698 
341 93.37276 17.88099 88.02848 50.27947 26.27302 73.45358 
342 71.02346 89.38006 9.914415 47.51508 65.69616 11.96503 
343 76.03051 84.70493 57.47372 52.48760 63.02932 37.41812 
344 35.11691 63.16875 84.66058 30.02052 33.29319 69.96349 
345 87.44202 19.56698 14.72461 32.58612 18.91612 4.573039 
346 50.26050 70.87385 42.92986 28.90154 39.26606 21.37672 
347 91.46870 70.84483 3.580704 50.68958 50.79127 8.253765 
348 65.79840 51.03211 38.39484 27.04209 25.93083 15.86121 
349 12.27989 69.40680 24.77956 18.02606 32.77366 10.92085 
350 71.62607 26.54355 40.48801 24.71517 15.95543 15.40915 
351 18.02835 36.36836 14.91673 6.314165 9.418017 4.164136 
352 28.87127 51.10321 40.41806 14.13917 19.28478 16.56226 
353 61.37273 78.55731 63.64003 41.67503 51.68109 42.62202 
354 37.00526 21.80804 14.64660 7.324802 6.272561 3.446514 
355 36.65593 28.50761 92.73546 22.91470 14.02895 81.30743 
356 96.27138 52.29608 52.93812 51.13397 38.74460 28.34195 
357 8.499991 5.354244 55.14956 6.204394 3.359918 25.99426 
358 87.11781 37.04598 94.69783 50.66558 30.72405 86.90647 
359 89.06799 7.082382 28.87420 33.82886 18.10581 8.923974 
360 81.27728 47.49899 26.25969 34.33381 28.13979 9.735964 
361 53.98435 54.37236 21.55200 21.09407 24.77360 8.104793 
362 86.58942 42.37131 54.24691 40.34302 28.64426 28.19977 
363 64.83345 24.95512 23.90645 19.05778 12.87819 6.708455 
364 7.528230 84.61168 89.14170 39.29137 55.14223 81.62612 
365 9.760916 24.52569 26.68911 4.163805 5.086195 7.047020 
366 18.74993 15.63851 34.28932 4.666287 3.800225 10.36999 
367 48.12062 85.46217 88.89394 47.53411 60.22287 81.71996 
368 88.69002 27.33951 48.96062 37.90825 22.79933 22.42810 
369 14.19867 42.36861 86.00565 19.74151 17.08006 69.70007 
370 68.56801 9.535025 9.815454 18.97373 10.73671 2.845260 
371 70.82730 72.12200 6.608690 36.82736 44.62023 8.052200 
372 9.015053 58.87300 69.61293 20.07555 25.97604 46.27413 
373 91.60881 57.44627 28.37838 45.88687 39.22299 12.14748 
374 29.21898 51.13223 10.29284 11.97676 18.44343 4.771151 
375 60.68112 91.36200 92.96010 58.31710 71.60682 90.99102 
376 75.75947 87.81787 94.74541 65.00381 71.31420 94.08077 
377 90.23629 39.01538 32.40814 39.33718 27.21406 12.07338 
378 13.98557 59.31795 35.37091 14.54259 24.09324 14.36682 
379 37.53402 77.97906 40.15144 28.32534 44.77037 20.55796 
380 7.687012 7.092895 32.05706 2.991548 2.173455 8.976682 
381 65.34131 66.22438 49.72473 34.50212 38.64937 26.31868 
382 91.54018 90.66535 8.584686 62.89793 74.96847 12.76427 
383 65.12267 31.09834 74.33730 28.52702 18.27449 50.87835 
384 75.84138 9.503787 61.63414 29.24156 15.34995 33.94568 
385 75.48000 67.68832 91.32998 51.90855 47.41293 83.54073 
386 13.91357 89.66034 79.29960 39.92371 60.86808 65.97329 
387 23.60026 78.53582 85.55265 35.91639 47.99134 74.02660 
388 10.75367 60.43016 12.14826 13.16001 24.24467 6.128710 
389 89.81735 91.44807 45.32915 65.00415 76.53912 28.44933 
390 53.20835 90.44067 15.07663 39.54304 62.66666 12.72695 
391 60.04024 64.91177 31.53424 28.88985 35.12283 13.71298 
392 32.75917 48.04108 53.66675 15.99081 18.53103 26.97619 
393 48.59666 68.81375 10.12931 24.67066 35.84539 7.437441 
394 77.80311 51.76974 66.59555 39.49920 32.14826 42.55735 
395 45.07153 27.39175 29.09755 11.38068 9.414331 8.528061 
396 33.42369 26.45311 59.49747 12.33251 9.185912 31.28149 
397 31.92669 52.40947 90.78019 27.13609 25.27067 79.53624 
398 70.91852 51.19598 53.79292 32.28893 28.45152 28.15257 
399 23.92536 68.12933 44.07534 20.75749 33.01377 21.43323 
400 82.93334 60.20767 77.99738 49.29197 41.58619 59.73559 
401 87.40441 7.180248 8.777310 31.45901 17.01302 3.257735 
402 68.97446 90.85283 44.21101 50.11705 68.25252 26.78967 
403 37.96856 49.91321 26.58653 14.43843 19.01485 9.153110 
